;FLAVOR:Marlin
;TIME:20337
;Filament used: 23.5842m
;Layer height: 0.6
;Generated with Cura_SteamEngine 3.6.0
M104 S200
M105
M109 S200
M82 ;absolute extrusion mode
G21 ;metric values
G90 ;absolute positioning
M82 ;set extruder to absolute mode
M107 ;start with the fan off
G28 X0 Y0 ;move X/Y to min endstops
G28 Z0 ;move Z to min endstops
G1 Z15.0 F9000 ;move the platform down 15mm
G92 E0 ;zero the extruded length
G1 F200 E6 ;extrude 6 mm of feed stock
G92 E0 ;zero the extruded length again
G1 F9000
;Put printing message on LCD screen
M117 Printing...
G92 E0
G1 F1500 E-6.5
;LAYER_COUNT:93
;LAYER:0
M107
G0 F3600 X12.101 Y15.922 Z0.3
;TYPE:SKIRT
G1 F1500 E0
G1 F1800 X12.562 Y15.568 E0.01093
G1 X13.992 Y14.553 E0.04392
G1 X14.659 Y14.129 E0.05879
G1 X15.171 Y13.863 E0.06964
G1 X16.752 Y13.115 E0.10254
G1 X17.482 Y12.814 E0.11739
G1 X18.047 Y12.638 E0.12852
G1 X19.729 Y12.182 E0.16131
G1 X20.739 Y11.979 E0.18068
G1 X21.601 Y11.864 E0.19704
G1 X22.63 Y11.795 E0.21644
G1 X181.503 Y11.755 E3.20493
G1 X182.132 Y11.78 E3.21677
G1 X183.683 Y11.905 E3.24604
G1 X184.466 Y12.008 E3.2609
G1 X184.901 Y12.101 E3.26927
G1 X186.425 Y12.472 E3.29877
G1 X187.182 Y12.698 E3.31363
G1 X187.597 Y12.858 E3.322
G1 X189.044 Y13.465 E3.35151
G1 X189.756 Y13.807 E3.36637
G1 X190.142 Y14.032 E3.37478
G1 X191.488 Y14.868 E3.40458
G1 X192.137 Y15.318 E3.41944
G1 X192.477 Y15.596 E3.4277
G1 X193.666 Y16.625 E3.45728
G1 X194.236 Y17.171 E3.47213
G1 X194.526 Y17.496 E3.48032
G1 X195.551 Y18.712 E3.51023
G1 X196.029 Y19.341 E3.52509
G1 X196.263 Y19.706 E3.53325
G1 X197.081 Y21.06 E3.56301
G1 X197.455 Y21.755 E3.57785
G1 X197.627 Y22.147 E3.58591
G1 X198.227 Y23.618 E3.61579
G1 X198.488 Y24.363 E3.63064
G1 X198.593 Y24.757 E3.63831
G1 X198.963 Y26.311 E3.66836
G1 X199.107 Y27.088 E3.68322
G1 X199.151 Y27.508 E3.69117
G1 X199.275 Y29.088 E3.72098
G1 X199.299 Y29.698 E3.73246
G1 X199.299 Y68.067 E4.4542
G1 X199.259 Y68.856 E4.46906
G1 X199.14 Y69.636 E4.48391
G1 X198.942 Y70.401 E4.49877
G1 X198.668 Y71.141 E4.51361
G1 X198.32 Y71.85 E4.52847
G1 X197.902 Y72.521 E4.54334
G1 X197.419 Y73.145 E4.55818
G1 X197.014 Y73.582 E4.56939
G1 X196.897 Y73.699 E4.5725
G1 X196.311 Y74.229 E4.58737
G1 X195.675 Y74.696 E4.60221
G1 X194.995 Y75.097 E4.61706
G1 X194.277 Y75.427 E4.63192
G1 X193.53 Y75.682 E4.64677
G1 X192.761 Y75.861 E4.66162
G1 X191.977 Y75.961 E4.67649
G1 X191.382 Y75.984 E4.68769
G1 X157.139 Y75.984 E5.33182
G1 X157.139 Y80.477 E5.41634
G1 X157.099 Y81.266 E5.4312
G1 X156.98 Y82.046 E5.44604
G1 X156.782 Y82.811 E5.4609
G1 X156.508 Y83.551 E5.47575
G1 X156.16 Y84.26 E5.4906
G1 X155.742 Y84.931 E5.50547
G1 X155.259 Y85.555 E5.52032
G1 X154.808 Y86.039 E5.53276
G1 X154.688 Y86.157 E5.53593
G1 X154.098 Y86.681 E5.55077
G1 X153.457 Y87.143 E5.56563
G1 X152.773 Y87.538 E5.58049
G1 X152.053 Y87.862 E5.59534
G1 X151.304 Y88.111 E5.61019
G1 X150.533 Y88.284 E5.62505
G1 X149.749 Y88.377 E5.6399
G1 X149.049 Y88.393 E5.65307
G1 X148.073 Y88.372 E5.67144
G1 X144.846 Y88.592 E5.73228
G1 X143.388 Y88.929 E5.76043
G1 X142.928 Y89.113 E5.76975
G1 X142.792 Y89.192 E5.77271
G1 X142.785 Y89.22 E5.77325
G1 X142.773 Y89.392 E5.77649
G1 X143.041 Y89.52 E5.78208
G1 X143.441 Y89.751 E5.79077
G1 X144.163 Y90.198 E5.80674
G1 X144.812 Y90.647 E5.82159
G1 X145.19 Y90.957 E5.83078
G1 X145.682 Y91.387 E5.84307
G1 X146.249 Y91.936 E5.85792
G1 X146.562 Y92.291 E5.86682
G1 X147.038 Y92.867 E5.88088
G1 X147.509 Y93.501 E5.89574
G1 X147.871 Y94.098 E5.90887
G1 X149.497 Y97.076 E5.97269
G1 X150.034 Y97.881 E5.99089
G1 X152.179 Y100.569 E6.05558
G1 X152.407 Y100.87 E6.06269
G1 X154.289 Y103.478 E6.12318
G1 X154.718 Y104.141 E6.13804
G1 X154.927 Y104.527 E6.1463
G1 X155.837 Y106.33 E6.18429
G1 X156.157 Y107.053 E6.19916
G1 X156.308 Y107.482 E6.20771
G1 X156.773 Y108.945 E6.23659
G1 X156.973 Y109.709 E6.25145
G1 X157.096 Y110.489 E6.2663
G1 X157.139 Y111.315 E6.28186
G1 X157.124 Y127.734 E6.59071
G1 X157.083 Y128.523 E6.60557
G1 X156.963 Y129.303 E6.62041
G1 X156.765 Y130.068 E6.63528
G1 X156.49 Y130.808 E6.65013
G1 X156.142 Y131.517 E6.66499
G1 X155.9 Y131.922 E6.67386
G1 X151.275 Y139.172 E6.83562
G1 X150.539 Y140.776 E6.86882
G1 X150.36 Y141.402 E6.88107
G1 X150.308 Y141.785 E6.88834
G1 X150.317 Y142.401 E6.89993
G1 X150.492 Y143.373 E6.9185
G1 X150.895 Y144.48 E6.94066
G1 X150.956 Y144.603 E6.94325
G1 X151.543 Y145.497 E6.96336
G1 X152.028 Y146.034 E6.97698
G1 X152.572 Y146.477 E6.99017
G1 X153.534 Y147.091 E7.01164
G1 X154.177 Y147.549 E7.02649
G1 X154.771 Y148.069 E7.04134
G1 X155.309 Y148.647 E7.05619
G1 X155.786 Y149.277 E7.07106
G1 X156.197 Y149.951 E7.08591
G1 X156.537 Y150.663 E7.10075
G1 X156.804 Y151.407 E7.11562
G1 X156.995 Y152.173 E7.13047
G1 X157.106 Y152.955 E7.14533
G1 X157.139 Y153.667 E7.15873
G1 X157.139 Y163.386 E7.34155
G1 X191.382 Y163.386 E7.98568
G1 X192.171 Y163.426 E8.00054
G1 X192.951 Y163.545 E8.01539
G1 X193.716 Y163.743 E8.03025
G1 X194.456 Y164.017 E8.04509
G1 X195.165 Y164.365 E8.05995
G1 X195.836 Y164.783 E8.07482
G1 X196.46 Y165.266 E8.08966
G1 X196.897 Y165.671 E8.10087
G1 X197.014 Y165.788 E8.10398
G1 X197.544 Y166.374 E8.11885
G1 X198.011 Y167.01 E8.13369
G1 X198.412 Y167.69 E8.14854
G1 X198.742 Y168.408 E8.1634
G1 X198.997 Y169.155 E8.17825
G1 X199.176 Y169.924 E8.1931
G1 X199.276 Y170.708 E8.20797
G1 X199.299 Y171.303 E8.21917
G1 X199.299 Y194.999 E8.6649
G1 X199.259 Y195.788 E8.67977
G1 X199.14 Y196.568 E8.69461
G1 X198.942 Y197.333 E8.70947
G1 X198.668 Y198.073 E8.72431
G1 X198.32 Y198.782 E8.73917
G1 X197.902 Y199.453 E8.75404
G1 X197.419 Y200.077 E8.76889
G1 X197.014 Y200.514 E8.78009
G1 X196.897 Y200.631 E8.78321
G1 X196.311 Y201.161 E8.79807
G1 X195.675 Y201.628 E8.81291
G1 X194.995 Y202.029 E8.82776
G1 X194.277 Y202.359 E8.84262
G1 X193.53 Y202.614 E8.85747
G1 X192.761 Y202.793 E8.87232
G1 X191.977 Y202.893 E8.88719
G1 X191.382 Y202.916 E8.89839
G1 X167.605 Y202.916 E9.34565
G1 X166.816 Y202.876 E9.36051
G1 X166.036 Y202.757 E9.37535
G1 X165.271 Y202.559 E9.39022
G1 X164.531 Y202.285 E9.40506
G1 X163.822 Y201.937 E9.41992
G1 X163.719 Y201.873 E9.4222
G1 X163.65 Y201.921 E9.42378
G1 X162.961 Y202.306 E9.43863
G1 X162.237 Y202.62 E9.45347
G1 X161.484 Y202.86 E9.46834
G1 X160.711 Y203.022 E9.48319
G1 X159.926 Y203.104 E9.49804
G1 X159.501 Y203.116 E9.50604
G1 X155.495 Y203.116 E9.58139
G1 X154.706 Y203.076 E9.59625
G1 X153.926 Y202.957 E9.61109
G1 X153.161 Y202.759 E9.62596
G1 X152.421 Y202.485 E9.6408
G1 X151.712 Y202.137 E9.65566
G1 X151.28 Y201.868 E9.66523
G1 X151.007 Y202.029 E9.67119
G1 X150.289 Y202.359 E9.68606
G1 X149.542 Y202.614 E9.70091
G1 X148.773 Y202.793 E9.71576
G1 X147.989 Y202.893 E9.73062
G1 X147.394 Y202.916 E9.74183
G1 X13.618 Y202.916 E12.25823
G1 X12.829 Y202.876 E12.27309
G1 X12.049 Y202.757 E12.28793
G1 X11.284 Y202.559 E12.30279
G1 X10.544 Y202.285 E12.31764
G1 X9.835 Y201.937 E12.33249
G1 X9.164 Y201.519 E12.34736
G1 X8.54 Y201.036 E12.36221
G1 X8.103 Y200.631 E12.37341
G1 X7.986 Y200.514 E12.37653
G1 X7.456 Y199.928 E12.39139
G1 X6.989 Y199.292 E12.40623
G1 X6.588 Y198.612 E12.42108
G1 X6.258 Y197.894 E12.43595
G1 X6.003 Y197.147 E12.45079
G1 X5.824 Y196.378 E12.46565
G1 X5.724 Y195.594 E12.48051
G1 X5.701 Y194.999 E12.49171
G1 X5.701 Y171.303 E12.93745
G1 X5.741 Y170.514 E12.95231
G1 X5.86 Y169.734 E12.96715
G1 X6.058 Y168.969 E12.98201
G1 X6.332 Y168.229 E12.99686
G1 X6.68 Y167.52 E13.01171
G1 X7.098 Y166.849 E13.02659
G1 X7.581 Y166.225 E13.04143
G1 X7.986 Y165.788 E13.05264
G1 X8.103 Y165.671 E13.05575
G1 X8.689 Y165.141 E13.07061
G1 X9.325 Y164.674 E13.08545
G1 X10.005 Y164.273 E13.1003
G1 X10.723 Y163.943 E13.11517
G1 X11.47 Y163.688 E13.13001
G1 X12.239 Y163.509 E13.14487
G1 X13.023 Y163.409 E13.15973
G1 X13.618 Y163.386 E13.17093
G1 X47.861 Y163.386 E13.81506
G1 X47.861 Y159.917 E13.88032
G1 X47.901 Y159.128 E13.89518
G1 X48.02 Y158.348 E13.91002
G1 X48.218 Y157.583 E13.92489
G1 X48.492 Y156.843 E13.93973
G1 X48.84 Y156.134 E13.95459
G1 X49.258 Y155.463 E13.96946
G1 X49.739 Y154.841 E13.98425
G1 X49.835 Y154.729 E13.98702
G1 X50.378 Y154.156 E14.00187
G1 X50.977 Y153.641 E14.01673
G1 X51.625 Y153.189 E14.03159
G1 X52.315 Y152.806 E14.04644
G1 X53.04 Y152.493 E14.06129
G1 X53.794 Y152.256 E14.07616
G1 X54.563 Y152.097 E14.09093
G1 X57.504 Y151.641 E14.14691
G1 X60.362 Y150.842 E14.20273
G1 X61.615 Y150.261 E14.22871
G1 X62.042 Y149.975 E14.23838
G1 X62.141 Y149.886 E14.24089
G1 X62.066 Y149.846 E14.24248
G1 X61.713 Y149.62 E14.25037
G1 X60.842 Y149.027 E14.27019
G1 X60.213 Y148.55 E14.28504
G1 X59.861 Y148.235 E14.29392
G1 X58.906 Y147.328 E14.3187
G1 X58.361 Y146.756 E14.33356
G1 X58.029 Y146.341 E14.34356
G1 X56.448 Y144.225 E14.39324
G1 X56.23 Y143.918 E14.40033
G1 X50.7 Y135.72 E14.58634
G1 X50.222 Y134.911 E14.60402
G1 X48.717 Y131.97 E14.66616
G1 X48.394 Y131.25 E14.681
G1 X48.144 Y130.501 E14.69586
G1 X47.972 Y129.73 E14.71072
G1 X47.879 Y128.946 E14.72557
G1 X47.861 Y128.41 E14.73566
G1 X47.875 Y111.632 E15.05126
G1 X47.916 Y110.844 E15.0661
G1 X48.036 Y110.063 E15.08097
G1 X48.234 Y109.299 E15.09581
G1 X48.509 Y108.559 E15.11066
G1 X49.005 Y107.595 E15.13105
G1 X49.738 Y106.386 E15.15765
G1 X50.03 Y105.939 E15.16769
G1 X52.523 Y102.398 E15.24915
G1 X53.948 Y100.097 E15.30006
G1 X54.377 Y99.063 E15.32112
G1 X54.613 Y98.089 E15.33997
G1 X54.674 Y97.43 E15.35242
G1 X54.617 Y96.563 E15.36877
G1 X54.4 Y95.677 E15.38593
G1 X53.997 Y94.749 E15.40496
G1 X53.584 Y94.095 E15.41951
G1 X52.998 Y93.416 E15.43638
G1 X52.364 Y92.877 E15.45203
G1 X51.347 Y92.202 E15.47499
G1 X50.712 Y91.732 E15.48985
G1 X50.128 Y91.201 E15.5047
G1 X49.6 Y90.613 E15.51957
G1 X49.135 Y89.975 E15.53442
G1 X48.737 Y89.294 E15.54925
G1 X48.409 Y88.575 E15.56412
G1 X48.156 Y87.827 E15.57897
G1 X47.979 Y87.057 E15.59383
G1 X47.882 Y86.274 E15.60868
G1 X47.861 Y85.703 E15.61942
G1 X47.861 Y75.984 E15.80224
G1 X13.618 Y75.984 E16.44637
G1 X12.829 Y75.944 E16.46123
G1 X12.049 Y75.825 E16.47608
G1 X11.284 Y75.627 E16.49094
G1 X10.544 Y75.353 E16.50578
G1 X9.835 Y75.005 E16.52064
G1 X9.164 Y74.587 E16.53551
G1 X8.54 Y74.104 E16.55035
G1 X8.103 Y73.699 E16.56156
G1 X7.986 Y73.582 E16.56467
G1 X7.456 Y72.996 E16.57954
G1 X6.989 Y72.36 E16.59438
G1 X6.588 Y71.68 E16.60923
G1 X6.258 Y70.962 E16.62409
G1 X6.003 Y70.215 E16.63894
G1 X5.824 Y69.446 E16.65379
G1 X5.724 Y68.662 E16.66866
G1 X5.701 Y68.067 E16.67986
G1 X5.701 Y29.699 E17.40158
G1 X5.731 Y29.02 E17.41437
G1 X5.885 Y27.258 E17.44764
G1 X5.993 Y26.476 E17.46249
G1 X6.115 Y25.941 E17.47281
G1 X6.566 Y24.237 E17.50597
G1 X6.806 Y23.485 E17.52082
G1 X7.02 Y22.972 E17.53127
G1 X7.759 Y21.366 E17.56453
G1 X8.125 Y20.667 E17.57937
G1 X8.43 Y20.19 E17.59002
G1 X9.433 Y18.74 E17.62318
G1 X9.915 Y18.114 E17.63804
G1 X10.29 Y17.704 E17.6485
G1 X11.519 Y16.456 E17.68144
G1 X12.101 Y15.922 E17.6963
G0 F3600 X12.372 Y16.217
G1 F1800 X12.794 Y15.895 E17.70629
G1 X14.224 Y14.88 E17.73927
G1 X14.873 Y14.468 E17.75373
G1 X15.342 Y14.225 E17.76367
G1 X16.923 Y13.477 E17.79657
G1 X17.635 Y13.185 E17.81104
G1 X18.152 Y13.024 E17.82123
G1 X19.834 Y12.568 E17.85401
G1 X20.791 Y12.375 E17.87238
G1 X21.653 Y12.26 E17.88873
G1 X22.63 Y12.195 E17.90715
G1 X181.503 Y12.155 E20.89564
G1 X182.099 Y12.179 E20.90686
G1 X183.65 Y12.304 E20.93613
G1 X184.413 Y12.405 E20.95061
G1 X184.806 Y12.49 E20.95817
G1 X186.33 Y12.861 E20.98768
G1 X187.067 Y13.082 E21.00215
G1 X187.443 Y13.227 E21.00973
G1 X188.89 Y13.834 E21.03925
G1 X189.582 Y14.168 E21.0537
G1 X189.931 Y14.372 E21.06131
G1 X191.277 Y15.208 E21.09111
G1 X191.909 Y15.647 E21.10559
G1 X192.216 Y15.898 E21.11305
G1 X193.405 Y16.927 E21.14262
G1 X193.959 Y17.46 E21.15709
G1 X194.22 Y17.754 E21.16448
G1 X195.245 Y18.97 E21.1944
G1 X195.71 Y19.583 E21.20887
G1 X195.921 Y19.912 E21.21622
G1 X196.739 Y21.266 E21.24598
G1 X197.102 Y21.945 E21.26046
G1 X197.257 Y22.298 E21.26771
G1 X197.857 Y23.769 E21.2976
G1 X198.204 Y24.85 E21.31895
G1 X198.574 Y26.404 E21.349
G1 X198.752 Y27.539 E21.37061
G1 X198.876 Y29.119 E21.40042
G1 X198.899 Y29.698 E21.41132
G1 X198.899 Y68.067 E22.13307
G1 X198.859 Y68.835 E22.14753
G1 X198.74 Y69.595 E22.162
G1 X198.542 Y70.338 E22.17647
G1 X198.268 Y71.057 E22.19094
G1 X197.921 Y71.743 E22.2054
G1 X197.505 Y72.39 E22.21987
G1 X197.024 Y72.99 E22.23434
G1 X196.732 Y73.3 E22.24235
G1 X196.615 Y73.417 E22.24546
G1 X196.043 Y73.931 E22.25992
G1 X195.421 Y74.384 E22.2744
G1 X194.756 Y74.77 E22.28886
G1 X194.054 Y75.085 E22.30334
G1 X193.323 Y75.325 E22.31781
G1 X192.572 Y75.488 E22.33226
G1 X191.807 Y75.572 E22.34674
G1 X191.382 Y75.584 E22.35474
G1 X156.739 Y75.584 E23.00639
G1 X156.739 Y80.477 E23.09843
G1 X156.699 Y81.245 E23.1129
G1 X156.58 Y82.005 E23.12737
G1 X156.382 Y82.748 E23.14183
G1 X156.108 Y83.467 E23.15631
G1 X155.761 Y84.153 E23.17077
G1 X155.345 Y84.8 E23.18524
G1 X154.864 Y85.4 E23.1997
G1 X154.527 Y85.753 E23.20888
G1 X154.407 Y85.871 E23.21205
G1 X153.832 Y86.381 E23.22651
G1 X153.206 Y86.829 E23.24099
G1 X152.538 Y87.209 E23.25544
G1 X151.833 Y87.518 E23.26992
G1 X151.1 Y87.752 E23.28439
G1 X150.347 Y87.908 E23.29886
G1 X149.582 Y87.986 E23.31332
G1 X149.057 Y87.993 E23.3232
G1 X148.066 Y87.971 E23.34185
G1 X144.785 Y88.195 E23.40371
G1 X143.27 Y88.545 E23.43296
G1 X142.746 Y88.755 E23.44358
G1 X142.491 Y88.903 E23.44912
G1 X142.446 Y88.94 E23.45022
G1 X142.444 Y88.943 E23.45029
G1 X142.436 Y88.963 E23.45069
G1 X142.389 Y89.159 E23.45448
G1 X142.354 Y89.635 E23.46346
G1 X142.868 Y89.881 E23.47418
G1 X143.23 Y90.091 E23.48205
G1 X143.952 Y90.538 E23.49802
G1 X144.584 Y90.977 E23.5125
G1 X144.927 Y91.258 E23.52084
G1 X145.419 Y91.688 E23.53313
G1 X145.971 Y92.224 E23.5476
G1 X146.253 Y92.546 E23.55566
G1 X146.729 Y93.122 E23.56971
G1 X147.188 Y93.74 E23.58419
G1 X147.52 Y94.29 E23.59628
G1 X149.155 Y97.285 E23.66046
G1 X149.709 Y98.115 E23.67923
G1 X151.866 Y100.818 E23.74428
G1 X152.083 Y101.104 E23.75104
G1 X153.965 Y103.712 E23.81153
G1 X154.382 Y104.358 E23.826
G1 X154.57 Y104.708 E23.83347
G1 X155.48 Y106.511 E23.87146
G1 X155.791 Y107.214 E23.88592
G1 X155.926 Y107.603 E23.89367
G1 X156.391 Y109.066 E23.92254
G1 X156.586 Y109.811 E23.93703
G1 X156.702 Y110.571 E23.95149
G1 X156.739 Y111.315 E23.9655
G1 X156.724 Y127.734 E24.27435
G1 X156.683 Y128.502 E24.28882
G1 X156.563 Y129.262 E24.30329
G1 X156.365 Y130.005 E24.31776
G1 X156.09 Y130.723 E24.33222
G1 X155.563 Y131.707 E24.35322
G1 X150.92 Y138.985 E24.51561
G1 X150.163 Y140.635 E24.54976
G1 X149.968 Y141.317 E24.5631
G1 X149.908 Y141.764 E24.57158
G1 X149.917 Y142.441 E24.58432
G1 X150.104 Y143.475 E24.60408
G1 X150.527 Y144.639 E24.62738
G1 X150.61 Y144.804 E24.63085
G1 X151.226 Y145.742 E24.65196
G1 X151.752 Y146.325 E24.66673
G1 X152.338 Y146.803 E24.68096
G1 X153.318 Y147.428 E24.70282
G1 X153.945 Y147.875 E24.71731
G1 X154.521 Y148.384 E24.73177
G1 X155.041 Y148.951 E24.74624
G1 X155.5 Y149.568 E24.7607
G1 X155.892 Y150.23 E24.77518
G1 X156.214 Y150.928 E24.78964
G1 X156.461 Y151.657 E24.80411
G1 X156.631 Y152.407 E24.81858
G1 X156.722 Y153.171 E24.83305
G1 X156.739 Y153.667 E24.84239
G1 X156.739 Y163.786 E25.03273
G1 X191.382 Y163.786 E25.68439
G1 X192.15 Y163.826 E25.69885
G1 X192.91 Y163.945 E25.71332
G1 X193.653 Y164.143 E25.72779
G1 X194.372 Y164.417 E25.74226
G1 X195.058 Y164.764 E25.75672
G1 X195.705 Y165.18 E25.77119
G1 X196.305 Y165.661 E25.78566
G1 X196.615 Y165.953 E25.79367
G1 X196.732 Y166.07 E25.79678
G1 X197.246 Y166.642 E25.81124
G1 X197.699 Y167.264 E25.82572
G1 X198.085 Y167.929 E25.84018
G1 X198.4 Y168.631 E25.85466
G1 X198.64 Y169.362 E25.86913
G1 X198.803 Y170.113 E25.88358
G1 X198.887 Y170.878 E25.89806
G1 X198.899 Y171.303 E25.90606
G1 X198.899 Y194.999 E26.35179
G1 X198.859 Y195.767 E26.36626
G1 X198.74 Y196.527 E26.38073
G1 X198.542 Y197.27 E26.39519
G1 X198.268 Y197.989 E26.40967
G1 X197.921 Y198.675 E26.42413
G1 X197.505 Y199.322 E26.4386
G1 X197.024 Y199.922 E26.45306
G1 X196.732 Y200.232 E26.46107
G1 X196.615 Y200.349 E26.46419
G1 X196.043 Y200.863 E26.47865
G1 X195.421 Y201.316 E26.49313
G1 X194.756 Y201.702 E26.50759
G1 X194.054 Y202.017 E26.52206
G1 X193.323 Y202.257 E26.53653
G1 X192.572 Y202.42 E26.55099
