;FLAVOR:Marlin
;TIME:19402
;Filament used: 22.5171m
;Layer height: 0.6
;Generated with Cura_SteamEngine 3.6.0
M104 S200
M105
M109 S200
M82 ;absolute extrusion mode
G21 ;metric values
G90 ;absolute positioning
M82 ;set extruder to absolute mode
M107 ;start with the fan off
G28 X0 Y0 ;move X/Y to min endstops
G28 Z0 ;move Z to min endstops
G1 Z15.0 F9000 ;move the platform down 15mm
G92 E0 ;zero the extruded length
G1 F200 E6 ;extrude 6 mm of feed stock
G92 E0 ;zero the extruded length again
G1 F9000
;Put printing message on LCD screen
M117 Printing...
G92 E0
G1 F1500 E-6.5
;LAYER_COUNT:93
;LAYER:0
M107
G0 F3600 X7.098 Y5.241 Z0.3
;TYPE:SKIRT
G1 F1500 E0
G1 F1800 X7.581 Y4.617 E0.01484
G1 X7.986 Y4.18 E0.02605
G1 X8.103 Y4.063 E0.02916
G1 X8.689 Y3.533 E0.04403
G1 X9.325 Y3.066 E0.05887
G1 X10.005 Y2.665 E0.07372
G1 X10.723 Y2.335 E0.08858
G1 X11.47 Y2.08 E0.10343
G1 X12.239 Y1.901 E0.11828
G1 X13.023 Y1.801 E0.13315
G1 X13.618 Y1.778 E0.14435
G1 X147.394 Y1.778 E2.66075
G1 X148.183 Y1.818 E2.67561
G1 X148.963 Y1.937 E2.69045
G1 X149.728 Y2.135 E2.70532
G1 X150.468 Y2.409 E2.72016
G1 X151.177 Y2.757 E2.73502
G1 X151.279 Y2.82 E2.73727
G1 X151.31 Y2.798 E2.73799
G1 X151.996 Y2.408 E2.75283
G1 X152.719 Y2.09 E2.76769
G1 X153.47 Y1.846 E2.78254
G1 X154.242 Y1.68 E2.7974
G1 X155.027 Y1.592 E2.81225
G1 X155.498 Y1.578 E2.82112
G1 X159.505 Y1.578 E2.89649
G1 X160.294 Y1.618 E2.91135
G1 X161.074 Y1.737 E2.92619
G1 X161.839 Y1.935 E2.94106
G1 X162.579 Y2.209 E2.9559
G1 X163.288 Y2.557 E2.97076
G1 X163.72 Y2.826 E2.98033
G1 X163.993 Y2.665 E2.98629
G1 X164.711 Y2.335 E3.00116
G1 X165.458 Y2.08 E3.01601
G1 X166.227 Y1.901 E3.03086
G1 X167.011 Y1.801 E3.04572
G1 X167.606 Y1.778 E3.05692
G1 X191.382 Y1.778 E3.50416
G1 X192.171 Y1.818 E3.51903
G1 X192.951 Y1.937 E3.53387
G1 X193.716 Y2.135 E3.54873
G1 X194.456 Y2.409 E3.56357
G1 X195.165 Y2.757 E3.57843
G1 X195.836 Y3.175 E3.5933
G1 X196.46 Y3.658 E3.60815
G1 X196.897 Y4.063 E3.61935
G1 X197.014 Y4.18 E3.62247
G1 X197.544 Y4.766 E3.63733
G1 X198.011 Y5.402 E3.65217
G1 X198.412 Y6.082 E3.66702
G1 X198.742 Y6.8 E3.68188
G1 X198.997 Y7.547 E3.69673
G1 X199.176 Y8.316 E3.71158
G1 X199.276 Y9.1 E3.72645
G1 X199.299 Y9.695 E3.73765
G1 X199.299 Y27.181 E4.06657
G1 X199.259 Y27.97 E4.08143
G1 X199.14 Y28.75 E4.09628
G1 X198.942 Y29.515 E4.11114
G1 X198.668 Y30.255 E4.12598
G1 X198.32 Y30.964 E4.14084
G1 X197.902 Y31.635 E4.15571
G1 X197.419 Y32.259 E4.17055
G1 X197.014 Y32.696 E4.18176
G1 X196.897 Y32.813 E4.18487
G1 X196.311 Y33.343 E4.19974
G1 X195.675 Y33.81 E4.21458
G1 X194.995 Y34.211 E4.22943
G1 X194.277 Y34.541 E4.24429
G1 X193.53 Y34.796 E4.25914
G1 X192.761 Y34.975 E4.27399
G1 X191.977 Y35.075 E4.28886
G1 X191.382 Y35.098 E4.30006
G1 X157.139 Y35.098 E4.94419
G1 X157.139 Y39.592 E5.02872
G1 X157.099 Y40.381 E5.04358
G1 X156.98 Y41.161 E5.05843
G1 X156.782 Y41.926 E5.07329
G1 X156.508 Y42.666 E5.08813
G1 X156.16 Y43.375 E5.10299
G1 X155.742 Y44.046 E5.11786
G1 X155.259 Y44.67 E5.1327
G1 X154.831 Y45.131 E5.14454
G1 X154.713 Y45.248 E5.14766
G1 X154.125 Y45.775 E5.16252
G1 X153.486 Y46.24 E5.17738
G1 X152.804 Y46.637 E5.19223
G1 X152.085 Y46.964 E5.20708
G1 X151.337 Y47.217 E5.22194
G1 X150.567 Y47.392 E5.23679
G1 X149.783 Y47.489 E5.25165
G1 X149.184 Y47.509 E5.26292
G1 X147.087 Y47.499 E5.30237
G1 X144.481 Y47.765 E5.35165
G1 X143.241 Y48.093 E5.37577
G1 X142.855 Y48.262 E5.3837
G1 X142.794 Y48.3 E5.38505
G1 X142.777 Y48.378 E5.38655
G1 X142.771 Y48.496 E5.38878
G1 X142.835 Y48.525 E5.3901
G1 X143.232 Y48.746 E5.39864
G1 X143.981 Y49.192 E5.41504
G1 X144.638 Y49.63 E5.42989
G1 X145.017 Y49.93 E5.43899
G1 X145.526 Y50.359 E5.45151
G1 X146.103 Y50.898 E5.46636
G1 X146.422 Y51.248 E5.47527
G1 X146.889 Y51.793 E5.48877
G1 X147.575 Y52.726 E5.51055
G1 X148.134 Y53.618 E5.53036
G1 X148.401 Y54.078 E5.54036
G1 X149.726 Y56.552 E5.59315
G1 X149.929 Y56.852 E5.59997
G1 X152.01 Y59.475 E5.66295
G1 X152.173 Y59.688 E5.66799
G1 X154.103 Y62.301 E5.7291
G1 X154.729 Y63.298 E5.75124
G1 X155.694 Y65.129 E5.79018
G1 X156.027 Y65.846 E5.80505
G1 X156.204 Y66.329 E5.81472
G1 X156.749 Y67.986 E5.84753
G1 X156.957 Y68.748 E5.86239
G1 X157.087 Y69.526 E5.87723
G1 X157.139 Y70.431 E5.89428
G1 X157.123 Y86.848 E6.20309
G1 X157.082 Y87.636 E6.21794
G1 X156.962 Y88.417 E6.2328
G1 X156.763 Y89.181 E6.24765
G1 X156.489 Y89.921 E6.2625
G1 X156.14 Y90.63 E6.27736
G1 X155.861 Y91.094 E6.28754
G1 X152.917 Y95.62 E6.38911
G1 X151.156 Y98.502 E6.45264
G1 X150.508 Y99.98 E6.483
G1 X150.359 Y100.545 E6.49399
G1 X150.303 Y101.13 E6.50504
G1 X150.347 Y101.783 E6.51735
G1 X150.574 Y102.755 E6.53613
G1 X151.008 Y103.779 E6.55705
G1 X151.488 Y104.537 E6.57393
G1 X151.984 Y105.104 E6.5881
G1 X152.499 Y105.538 E6.60076
G1 X153.558 Y106.219 E6.62445
G1 X154.2 Y106.679 E6.6393
G1 X154.792 Y107.201 E6.65415
G1 X155.328 Y107.781 E6.66901
G1 X155.802 Y108.413 E6.68387
G1 X156.211 Y109.088 E6.69871
G1 X156.549 Y109.802 E6.71357
G1 X156.813 Y110.546 E6.72842
G1 X157 Y111.313 E6.74327
G1 X157.109 Y112.096 E6.75814
G1 X157.139 Y112.779 E6.771
G1 X157.139 Y128.531 E7.06731
G1 X157.099 Y129.32 E7.08217
G1 X156.98 Y130.1 E7.09701
G1 X156.782 Y130.865 E7.11187
G1 X156.522 Y131.566 E7.12594
G1 X180.606 Y131.572 E7.57897
G1 X181.77 Y131.66 E7.60093
G1 X182.868 Y131.826 E7.62182
G1 X183.657 Y131.987 E7.63697
G1 X184.615 Y132.235 E7.65558
G1 X185.527 Y132.532 E7.67362
G1 X186.863 Y133.06 E7.70065
G1 X187.782 Y133.494 E7.71976
G1 X188.789 Y134.053 E7.74143
G1 X189.437 Y134.456 E7.75578
G1 X190.249 Y135.017 E7.77435
G1 X190.961 Y135.572 E7.79133
G1 X191.829 Y136.334 E7.81305
G1 X192.486 Y136.984 E7.83044
G1 X193.272 Y137.859 E7.85256
G1 X193.845 Y138.578 E7.86986
G1 X194.439 Y139.421 E7.88926
G1 X194.84 Y140.053 E7.90334
G1 X195.392 Y141.022 E7.92431
G1 X195.852 Y141.974 E7.9442
G1 X196.452 Y143.467 E7.97447
G1 X196.808 Y144.592 E7.99667
G1 X197.149 Y146.043 E8.0247
G1 X197.329 Y147.178 E8.04632
G1 X197.459 Y148.736 E8.07573
G1 X197.486 Y149.385 E8.08795
G1 X197.486 Y187.665 E8.80802
G1 X197.446 Y188.454 E8.82288
G1 X197.327 Y189.234 E8.83772
G1 X197.129 Y189.999 E8.85258
G1 X196.855 Y190.739 E8.86743
G1 X196.507 Y191.448 E8.88228
G1 X196.089 Y192.119 E8.89715
G1 X195.606 Y192.743 E8.912
G1 X195.201 Y193.18 E8.9232
G1 X195.084 Y193.297 E8.92632
G1 X194.498 Y193.827 E8.94118
G1 X193.862 Y194.294 E8.95602
G1 X193.182 Y194.695 E8.97087
G1 X192.464 Y195.025 E8.98574
G1 X191.717 Y195.28 E9.00058
G1 X190.948 Y195.459 E9.01544
G1 X190.164 Y195.559 E9.0303
G1 X189.569 Y195.582 E9.0415
G1 X11.803 Y195.582 E12.38538
G1 X11.014 Y195.542 E12.40024
G1 X10.234 Y195.423 E12.41508
G1 X9.469 Y195.225 E12.42995
G1 X8.729 Y194.951 E12.44479
G1 X8.02 Y194.603 E12.45965
G1 X7.349 Y194.185 E12.47452
G1 X6.725 Y193.702 E12.48936
G1 X6.288 Y193.297 E12.50057
G1 X6.171 Y193.18 E12.50368
G1 X5.641 Y192.594 E12.51854
G1 X5.174 Y191.958 E12.53339
G1 X4.773 Y191.278 E12.54824
G1 X4.443 Y190.56 E12.5631
G1 X4.188 Y189.813 E12.57795
G1 X4.009 Y189.044 E12.5928
G1 X3.909 Y188.26 E12.60767
G1 X3.886 Y187.655 E12.61905
G1 X3.935 Y148.406 E13.35735
G1 X4.025 Y147.237 E13.37941
G1 X4.183 Y146.204 E13.39906
G1 X4.34 Y145.436 E13.41381
G1 X4.59 Y144.466 E13.43265
G1 X4.893 Y143.536 E13.45105
G1 X5.485 Y142.044 E13.48124
G1 X5.813 Y141.326 E13.49609
G1 X6.115 Y140.797 E13.50755
G1 X7.209 Y139.041 E13.54647
G1 X7.66 Y138.392 E13.56133
G1 X7.967 Y138.02 E13.57041
G1 X8.735 Y137.145 E13.59231
G1 X9.373 Y136.498 E13.6094
G1 X10.147 Y135.8 E13.629
G1 X10.76 Y135.301 E13.64387
G1 X11.117 Y135.054 E13.65204
G1 X12.96 Y133.855 E13.6934
G1 X13.643 Y133.458 E13.70826
G1 X14.114 Y133.235 E13.71806
G1 X15.167 Y132.779 E13.73964
G1 X16.058 Y132.456 E13.75747
G1 X17.257 Y132.102 E13.78099
G1 X18.134 Y131.898 E13.79793
G1 X19.219 Y131.71 E13.81864
G1 X20.107 Y131.608 E13.83545
G1 X21.213 Y131.545 E13.85629
G1 X21.659 Y131.532 E13.86468
G1 X48.47 Y131.539 E14.36901
G1 X48.418 Y131.426 E14.37135
G1 X48.163 Y130.679 E14.3862
G1 X47.984 Y129.91 E14.40105
G1 X47.884 Y129.126 E14.41592
G1 X47.861 Y128.531 E14.42712
G1 X47.861 Y119.028 E14.60588
G1 X47.901 Y118.239 E14.62074
G1 X48.02 Y117.459 E14.63558
G1 X48.218 Y116.694 E14.65044
G1 X48.492 Y115.954 E14.66529
G1 X48.84 Y115.245 E14.68014
G1 X49.258 Y114.574 E14.69502
G1 X49.739 Y113.952 E14.70981
G1 X49.835 Y113.84 E14.71258
G1 X50.378 Y113.267 E14.72743
G1 X50.977 Y112.752 E14.74229
G1 X51.625 Y112.3 E14.75715
G1 X52.315 Y111.917 E14.772
G1 X53.04 Y111.604 E14.78685
G1 X53.794 Y111.367 E14.80172
G1 X54.531 Y111.213 E14.81588
G1 X57.799 Y110.693 E14.87813
G1 X60.315 Y109.975 E14.92734
G1 X61.611 Y109.375 E14.95421
G1 X62.043 Y109.087 E14.96397
G1 X62.139 Y109 E14.96641
G1 X62.131 Y108.996 E14.96658
G1 X61.778 Y108.772 E14.97444
G1 X60.909 Y108.186 E14.99416
G1 X60.278 Y107.712 E15.009
G1 X59.916 Y107.391 E15.01811
G1 X58.919 Y106.45 E15.04389
G1 X58.373 Y105.88 E15.05874
G1 X58.005 Y105.42 E15.06982
G1 X56.326 Y103.153 E15.12289
G1 X56.128 Y102.874 E15.12932
G1 X50.66 Y94.77 E15.31322
G1 X50.175 Y93.946 E15.3312
G1 X48.71 Y91.069 E15.39193
G1 X48.388 Y90.348 E15.40679
G1 X48.14 Y89.599 E15.42163
G1 X47.97 Y88.828 E15.43648
G1 X47.878 Y88.043 E15.45135
G1 X47.861 Y87.524 E15.46112
G1 X47.874 Y70.746 E15.77672
G1 X47.915 Y69.957 E15.79158
G1 X48.035 Y69.177 E15.80643
G1 X48.233 Y68.412 E15.82129
G1 X48.508 Y67.672 E15.83614
G1 X48.977 Y66.753 E15.85555
G1 X49.549 Y65.795 E15.87654
G1 X49.851 Y65.328 E15.887
G1 X52.085 Y62.129 E15.96039
G1 X53.728 Y59.63 E16.01665
G1 X54.258 Y58.512 E16.03992
G1 X54.547 Y57.537 E16.05905
G1 X54.667 Y56.625 E16.07636
G1 X54.637 Y55.793 E16.09202
G1 X54.489 Y55.069 E16.10592
G1 X54.137 Y54.142 E16.12457
G1 X53.629 Y53.275 E16.14347
G1 X53.088 Y52.619 E16.15947
G1 X52.474 Y52.074 E16.17491
G1 X51.298 Y51.281 E16.20159
G1 X50.667 Y50.806 E16.21645
G1 X50.087 Y50.271 E16.23129
G1 X49.563 Y49.679 E16.24616
G1 X49.103 Y49.038 E16.261
G1 X48.71 Y48.353 E16.27586
G1 X48.387 Y47.632 E16.29072
G1 X48.14 Y46.882 E16.30557
G1 X47.969 Y46.111 E16.32043
G1 X47.878 Y45.327 E16.33527
G1 X47.861 Y44.815 E16.34491
G1 X47.861 Y35.098 E16.52769
G1 X13.618 Y35.098 E17.17182
G1 X12.829 Y35.058 E17.18668
G1 X12.049 Y34.939 E17.20152
G1 X11.284 Y34.741 E17.21639
G1 X10.544 Y34.467 E17.23123
G1 X9.835 Y34.119 E17.24609
G1 X9.164 Y33.701 E17.26096
G1 X8.54 Y33.218 E17.2758
G1 X8.103 Y32.813 E17.28701
G1 X7.986 Y32.696 E17.29012
G1 X7.456 Y32.11 E17.30499
G1 X6.989 Y31.474 E17.31983
G1 X6.588 Y30.794 E17.33468
G1 X6.258 Y30.076 E17.34954
G1 X6.003 Y29.329 E17.36439
G1 X5.824 Y28.56 E17.37924
G1 X5.724 Y27.776 E17.39411
G1 X5.701 Y27.181 E17.40531
G1 X5.701 Y9.695 E17.73423
G1 X5.741 Y8.906 E17.74909
G1 X5.86 Y8.126 E17.76393
G1 X6.058 Y7.361 E17.7788
G1 X6.332 Y6.621 E17.79364
G1 X6.68 Y5.912 E17.8085
G1 X7.098 Y5.241 E17.82337
G0 F3600 X7.495 Y5.372
G1 F1800 X7.976 Y4.772 E17.83783
G1 X8.268 Y4.462 E17.84584
G1 X8.385 Y4.345 E17.84896
G1 X8.957 Y3.831 E17.86342
G1 X9.579 Y3.378 E17.8779
G1 X10.244 Y2.992 E17.89236
G1 X10.946 Y2.677 E17.90683
G1 X11.677 Y2.437 E17.92131
G1 X12.428 Y2.274 E17.93576
G1 X13.193 Y2.19 E17.95024
G1 X13.618 Y2.178 E17.95824
G1 X147.394 Y2.178 E20.47464
G1 X148.162 Y2.218 E20.4891
G1 X148.922 Y2.337 E20.50357
G1 X149.665 Y2.535 E20.51804
G1 X150.384 Y2.809 E20.53251
G1 X151.07 Y3.156 E20.54697
G1 X151.293 Y3.3 E20.55197
G1 X151.695 Y3.03 E20.56107
G1 X152.374 Y2.67 E20.57553
G1 X153.087 Y2.382 E20.59
G1 X153.826 Y2.169 E20.60446
G1 X154.584 Y2.035 E20.61894
G1 X155.498 Y1.978 E20.63617
G1 X159.505 Y1.978 E20.71154
G1 X160.273 Y2.018 E20.72601
G1 X161.033 Y2.137 E20.74048
G1 X161.776 Y2.335 E20.75494
G1 X162.495 Y2.609 E20.76942
G1 X163.181 Y2.956 E20.78388
G1 X163.709 Y3.296 E20.79569
G1 X164.232 Y2.992 E20.80707
G1 X164.934 Y2.677 E20.82154
G1 X165.665 Y2.437 E20.83602
G1 X166.416 Y2.274 E20.85047
G1 X167.181 Y2.19 E20.86495
G1 X167.606 Y2.178 E20.87295
G1 X191.382 Y2.178 E21.32018
G1 X192.15 Y2.218 E21.33465
G1 X192.91 Y2.337 E21.34912
G1 X193.653 Y2.535 E21.36359
G1 X194.372 Y2.809 E21.37806
G1 X195.058 Y3.156 E21.39252
G1 X195.705 Y3.572 E21.40699
G1 X196.305 Y4.053 E21.42145
G1 X196.615 Y4.345 E21.42946
G1 X196.732 Y4.462 E21.43258
G1 X197.246 Y5.034 E21.44704
G1 X197.699 Y5.656 E21.46152
G1 X198.085 Y6.321 E21.47598
G1 X198.4 Y7.023 E21.49045
G1 X198.64 Y7.754 E21.50493
G1 X198.803 Y8.505 E21.51938
G1 X198.887 Y9.27 E21.53386
G1 X198.899 Y9.695 E21.54186
G1 X198.899 Y27.181 E21.87078
G1 X198.859 Y27.949 E21.88524
G1 X198.74 Y28.709 E21.89971
G1 X198.542 Y29.452 E21.91418
G1 X198.268 Y30.171 E21.92865
G1 X197.921 Y30.857 E21.94311
G1 X197.505 Y31.504 E21.95758
G1 X197.024 Y32.104 E21.97205
G1 X196.732 Y32.414 E21.98006
G1 X196.615 Y32.531 E21.98317
G1 X196.043 Y33.045 E21.99764
G1 X195.421 Y33.498 E22.01211
G1 X194.756 Y33.884 E22.02657
G1 X194.054 Y34.199 E22.04105
G1 X193.323 Y34.439 E22.05552
G1 X192.572 Y34.602 E22.06998
G1 X191.807 Y34.686 E22.08445
G1 X191.382 Y34.698 E22.09245
G1 X156.739 Y34.698 E22.7441
G1 X156.739 Y39.592 E22.83616
G1 X156.699 Y40.36 E22.85063
G1 X156.58 Y41.12 E22.8651
G1 X156.382 Y41.863 E22.87956
G1 X156.108 Y42.582 E22.89404
G1 X155.761 Y43.268 E22.9085
G1 X155.345 Y43.915 E22.92297
G1 X154.864 Y44.515 E22.93743
G1 X154.549 Y44.847 E22.94604
G1 X154.431 Y44.964 E22.94917
G1 X153.858 Y45.476 E22.96362
G1 X153.234 Y45.926 E22.97809
G1 X152.567 Y46.309 E22.99256
G1 X151.864 Y46.621 E23.00703
G1 X151.132 Y46.858 E23.0215
G1 X150.38 Y47.018 E23.03596
G1 X149.615 Y47.099 E23.05043
G1 X149.186 Y47.109 E23.05851
G1 X147.067 Y47.099 E23.09837
G1 X144.412 Y47.37 E23.14857
G1 X143.109 Y47.715 E23.17392
G1 X142.662 Y47.911 E23.1831
G1 X142.467 Y48.033 E23.18743
G1 X142.446 Y48.052 E23.18796
G1 X142.431 Y48.09 E23.18873
G1 X142.38 Y48.32 E23.19316
G1 X142.357 Y48.747 E23.20121
G1 X142.668 Y48.89 E23.20765
G1 X143.027 Y49.09 E23.21538
G1 X143.776 Y49.536 E23.23177
G1 X144.416 Y49.963 E23.24625
G1 X144.759 Y50.236 E23.25449
G1 X145.268 Y50.665 E23.26701
G1 X145.83 Y51.19 E23.28148
G1 X146.118 Y51.508 E23.28955
G1 X146.585 Y52.053 E23.30305
G1 X147.236 Y52.938 E23.32372
G1 X147.795 Y53.83 E23.34352
G1 X148.049 Y54.267 E23.35303
G1 X149.381 Y56.755 E23.40611
G1 X149.612 Y57.094 E23.41383
G1 X151.697 Y59.723 E23.47695
G1 X151.851 Y59.925 E23.48172
G1 X153.781 Y62.538 E23.54283
G1 X154.375 Y63.485 E23.56386
G1 X155.34 Y65.316 E23.60279
G1 X155.663 Y66.014 E23.61726
G1 X155.824 Y66.454 E23.62607
G1 X156.369 Y68.111 E23.65888
G1 X156.571 Y68.853 E23.67335
G1 X156.694 Y69.612 E23.68781
G1 X156.739 Y70.43 E23.70322
G1 X156.723 Y86.847 E24.01204
G1 X156.682 Y87.615 E24.0265
G1 X156.562 Y88.375 E24.04098
G1 X156.364 Y89.118 E24.05544
G1 X156.089 Y89.837 E24.06992
G1 X155.742 Y90.523 E24.08438
G1 X155.526 Y90.876 E24.09217
G1 X152.583 Y95.399 E24.19367
G1 X150.799 Y98.319 E24.25804
G1 X150.129 Y99.85 E24.28947
G1 X149.965 Y100.472 E24.30157
G1 X149.902 Y101.125 E24.31391
G1 X149.95 Y101.846 E24.32751
G1 X150.19 Y102.875 E24.34738
G1 X150.655 Y103.97 E24.36976
G1 X151.166 Y104.775 E24.3877
G1 X151.705 Y105.392 E24.40311
G1 X152.256 Y105.856 E24.41666
G1 X153.342 Y106.555 E24.44095
G1 X153.966 Y107.004 E24.45541
G1 X154.541 Y107.516 E24.46989
G1 X155.059 Y108.084 E24.48435
G1 X155.515 Y108.703 E24.49882
G1 X155.905 Y109.366 E24.51329
G1 X156.224 Y110.066 E24.52776
G1 X156.468 Y110.795 E24.54222
G1 X156.636 Y111.546 E24.55669
G1 X156.724 Y112.31 E24.57116
G1 X156.739 Y112.779 E24.57999
G1 X156.739 Y128.531 E24.87629
G1 X156.699 Y129.299 E24.89076
G1 X156.58 Y130.059 E24.90523
G1 X156.382 Y130.802 E24.91969
G1 X156.108 Y131.521 E24.93416
G1 X155.883 Y131.966 E24.94354
G1 X180.606 Y131.972 E25.4086
G1 X181.71 Y132.055 E25.42942
G1 X182.808 Y132.221 E25.45031
G1 X183.557 Y132.374 E25.46469
G1 X184.515 Y132.622 E25.4833
G1 X185.38 Y132.904 E25.50042
G1 X186.716 Y133.432 E25.52744
G1 X187.588 Y133.844 E25.54558
G1 X188.595 Y134.403 E25.56725
G1 X189.209 Y134.785 E25.58085
G1 X190.021 Y135.346 E25.59942
G1 X190.697 Y135.873 E25.61554
G1 X191.565 Y136.635 E25.63727
G1 X192.188 Y137.251 E25.65375
G1 X192.974 Y138.126 E25.67587
G1 X193.518 Y138.809 E25.6923
G1 X194.112 Y139.652 E25.71169
