;FLAVOR:Marlin
;TIME:14626
;Filament used: 16.7895m
;Layer height: 0.6
;Generated with Cura_SteamEngine 3.6.0
M104 S200
M105
M109 S200
M82 ;absolute extrusion mode
G21 ;metric values
G90 ;absolute positioning
M82 ;set extruder to absolute mode
M107 ;start with the fan off
G28 X0 Y0 ;move X/Y to min endstops
G28 Z0 ;move Z to min endstops
G1 Z15.0 F9000 ;move the platform down 15mm
G92 E0 ;zero the extruded length
G1 F200 E6 ;extrude 6 mm of feed stock
G92 E0 ;zero the extruded length again
G1 F9000
;Put printing message on LCD screen
M117 Printing...
G92 E0
G1 F1500 E-6.5
;LAYER_COUNT:114
;LAYER:0
M107
G0 F3600 X60.13 Y115.774 Z0.3
;TYPE:SKIRT
G1 F1500 E0
G1 F1800 X60.863 Y115.478 E0.01487
G1 X61.621 Y115.259 E0.02971
G1 X62.203 Y115.145 E0.04087
G1 X63.027 Y115.016 E0.05656
G1 X63.894 Y114.929 E0.07295
G1 X65.321 Y114.867 E0.09981
G1 X65.662 Y114.86 E0.10623
G1 X140.691 Y114.883 E1.51757
G1 X141.48 Y114.923 E1.53243
G1 X142.125 Y115.016 E1.54469
G1 X143.027 Y115.185 E1.56195
G1 X143.795 Y115.37 E1.57681
G1 X144.54 Y115.631 E1.59166
G1 X145.255 Y115.966 E1.60651
G1 X145.933 Y116.372 E1.62138
G1 X146.566 Y116.844 E1.63623
G1 X147.148 Y117.378 E1.65109
G1 X147.673 Y117.968 E1.66594
G1 X148.315 Y118.898 E1.6872
G1 X148.719 Y119.585 E1.70219
G1 X149.084 Y120.285 E1.71704
G1 X149.377 Y121.019 E1.73191
G1 X149.594 Y121.778 E1.74676
G1 X149.733 Y122.555 E1.7616
G1 X149.793 Y123.343 E1.77647
G1 X149.772 Y124.132 E1.79132
G1 X149.673 Y124.915 E1.80616
G1 X149.494 Y125.685 E1.82103
G1 X149.239 Y126.432 E1.83588
G1 X148.909 Y127.15 E1.85074
G1 X148.338 Y128.079 E1.87126
G1 X147.764 Y128.881 E1.88981
G1 X147.272 Y129.499 E1.90467
G1 X146.721 Y130.064 E1.91951
G1 X146.011 Y130.647 E1.93679
G1 X145.537 Y130.992 E1.94782
G1 X144.876 Y131.424 E1.96268
G1 X144.074 Y131.832 E1.9796
G1 X143.569 Y132.053 E1.98997
G1 X142.831 Y132.332 E2.00481
G1 X142.068 Y132.536 E2.01967
G1 X141.554 Y132.627 E2.02949
G1 X140.45 Y132.786 E2.05047
G1 X139.338 Y132.866 E2.07144
G1 X65.662 Y132.865 E3.45733
G1 X64.557 Y132.786 E3.47817
G1 X63.453 Y132.628 E3.49914
G1 X62.678 Y132.477 E3.514
G1 X61.922 Y132.248 E3.52885
G1 X61.438 Y132.056 E3.53865
G1 X60.934 Y131.836 E3.54899
G1 X60.227 Y131.483 E3.56386
G1 X59.477 Y131.003 E3.58061
G1 X59.001 Y130.658 E3.59167
G1 X58.385 Y130.162 E3.60654
G1 X57.824 Y129.608 E3.62137
G1 X57.228 Y128.871 E3.6392
G1 X56.656 Y128.069 E3.65773
G1 X56.23 Y127.404 E3.67259
G1 X55.874 Y126.699 E3.68745
G1 X55.591 Y125.962 E3.7023
G1 X55.385 Y125.2 E3.71714
G1 X55.256 Y124.42 E3.73202
G1 X55.207 Y123.632 E3.74687
G1 X55.237 Y122.843 E3.76172
G1 X55.347 Y122.061 E3.77657
G1 X55.536 Y121.294 E3.79143
G1 X55.802 Y120.551 E3.80628
G1 X56.273 Y119.602 E3.82621
G1 X56.676 Y118.913 E3.84122
G1 X57.109 Y118.252 E3.85609
G1 X57.606 Y117.639 E3.87093
G1 X58.163 Y117.079 E3.88579
G1 X58.773 Y116.578 E3.90064
G1 X59.431 Y116.141 E3.91549
G1 X60.13 Y115.774 E3.93034
G0 F3600 X60.408 Y116.087
G1 F1800 X61.126 Y115.812 E3.94481
G1 X61.869 Y115.613 E3.95928
G1 X62.264 Y115.54 E3.96683
G1 X63.088 Y115.411 E3.98252
G1 X63.912 Y115.329 E3.9981
G1 X65.339 Y115.267 E4.02497
G1 X65.662 Y115.26 E4.03104
G1 X140.691 Y115.283 E5.44238
G1 X141.459 Y115.323 E5.45685
G1 X142.052 Y115.41 E5.46812
G1 X142.954 Y115.579 E5.48538
G1 X143.701 Y115.759 E5.49984
G1 X144.426 Y116.017 E5.51431
G1 X145.12 Y116.348 E5.52877
G1 X145.776 Y116.749 E5.54324
G1 X146.387 Y117.217 E5.55771
G1 X146.946 Y117.745 E5.57218
G1 X147.447 Y118.329 E5.58665
G1 X147.97 Y119.101 E5.60419
G1 X148.374 Y119.788 E5.61919
G1 X148.729 Y120.47 E5.63365
G1 X149.011 Y121.186 E5.64812
G1 X149.217 Y121.927 E5.66259
G1 X149.346 Y122.685 E5.67705
G1 X149.394 Y123.453 E5.69153
G1 X149.363 Y124.221 E5.70599
G1 X149.253 Y124.982 E5.72045
G1 X149.064 Y125.728 E5.73493
G1 X148.798 Y126.45 E5.7494
G1 X148.46 Y127.14 E5.76385
G1 X148.013 Y127.846 E5.77957
G1 X147.439 Y128.648 E5.79812
G1 X146.959 Y129.249 E5.81259
G1 X146.42 Y129.798 E5.82706
G1 X145.776 Y130.324 E5.8427
G1 X145.302 Y130.669 E5.85373
G1 X144.657 Y131.089 E5.86821
G1 X143.914 Y131.465 E5.88387
G1 X143.409 Y131.686 E5.89424
G1 X142.689 Y131.958 E5.90872
G1 X141.945 Y132.153 E5.92319
G1 X141.497 Y132.231 E5.93174
G1 X140.393 Y132.39 E5.95272
G1 X139.338 Y132.466 E5.97262
G1 X65.662 Y132.465 E7.35851
G1 X64.614 Y132.39 E7.37827
G1 X63.51 Y132.232 E7.39925
G1 X62.755 Y132.084 E7.41372
G1 X62.02 Y131.858 E7.42819
G1 X61.598 Y131.689 E7.43674
G1 X61.094 Y131.469 E7.44708
G1 X60.406 Y131.125 E7.46155
G1 X59.711 Y130.679 E7.47709
G1 X59.235 Y130.334 E7.48814
G1 X58.637 Y129.851 E7.5026
G1 X58.092 Y129.308 E7.51707
G1 X57.553 Y128.639 E7.53323
G1 X56.981 Y127.837 E7.55176
G1 X56.568 Y127.188 E7.56624
G1 X56.224 Y126.5 E7.5807
G1 X55.953 Y125.78 E7.59518
G1 X55.759 Y125.036 E7.60964
G1 X55.643 Y124.276 E7.6241
G1 X55.606 Y123.508 E7.63856
G1 X55.649 Y122.74 E7.65303
G1 X55.772 Y121.98 E7.66751
G1 X55.973 Y121.238 E7.68198
G1 X56.25 Y120.52 E7.69645
G1 X56.618 Y119.804 E7.71159
G1 X57.021 Y119.115 E7.72661
G1 X57.444 Y118.472 E7.74109
G1 X57.93 Y117.876 E7.75555
G1 X58.476 Y117.335 E7.77001
G1 X59.076 Y116.852 E7.7845
G1 X59.722 Y116.435 E7.79896
G1 X60.408 Y116.087 E7.81343
G0 F3600 X60.683 Y116.404
G1 F1800 X61.386 Y116.15 E7.82749
G1 X62.326 Y115.935 E7.84563
G1 X63.15 Y115.806 E7.86132
G1 X63.929 Y115.729 E7.87605
G1 X65.356 Y115.667 E7.90291
G1 X65.662 Y115.66 E7.90867
G1 X140.691 Y115.683 E9.32001
G1 X141.438 Y115.723 E9.33408
G1 X141.978 Y115.803 E9.34435
G1 X142.88 Y115.972 E9.36161
G1 X143.607 Y116.149 E9.37569
G1 X144.311 Y116.402 E9.38976
G1 X144.984 Y116.729 E9.40383
G1 X145.618 Y117.126 E9.4179
G1 X146.206 Y117.588 E9.43197
G1 X146.741 Y118.111 E9.44604
G1 X147.218 Y118.688 E9.46013
G1 X147.625 Y119.304 E9.47401
G1 X148.029 Y119.991 E9.48901
G1 X148.373 Y120.655 E9.50307
G1 X148.645 Y121.352 E9.51715
G1 X148.84 Y122.074 E9.53121
G1 X148.957 Y122.813 E9.54529
G1 X148.995 Y123.56 E9.55936
G1 X148.953 Y124.307 E9.57343
G1 X148.831 Y125.045 E9.5875
G1 X148.631 Y125.766 E9.60158
G1 X148.356 Y126.461 E9.61564
G1 X148.008 Y127.123 E9.6297
G1 X147.687 Y127.613 E9.64072
G1 X147.113 Y128.415 E9.65928
G1 X146.646 Y128.999 E9.67334
G1 X146.119 Y129.53 E9.68741
G1 X145.54 Y130.001 E9.70145
G1 X145.066 Y130.346 E9.71248
G1 X144.439 Y130.753 E9.72654
G1 X143.753 Y131.099 E9.74099
G1 X143.248 Y131.32 E9.75136
G1 X142.548 Y131.583 E9.76543
G1 X141.824 Y131.769 E9.77949
G1 X141.44 Y131.836 E9.78682
G1 X140.336 Y131.995 E9.8078
G1 X139.338 Y132.066 E9.82663
G1 X65.662 Y132.065 E11.21251
G1 X64.67 Y131.994 E11.23122
G1 X63.566 Y131.836 E11.2522
G1 X62.832 Y131.691 E11.26627
G1 X62.118 Y131.468 E11.28034
G1 X61.758 Y131.322 E11.28765
G1 X61.254 Y131.102 E11.29799
G1 X60.585 Y130.767 E11.31207
G1 X59.946 Y130.355 E11.32637
G1 X59.47 Y130.01 E11.33743
G1 X58.889 Y129.539 E11.3515
G1 X58.361 Y129.009 E11.36557
G1 X57.879 Y128.407 E11.38008
G1 X57.307 Y127.605 E11.39861
G1 X56.906 Y126.973 E11.41269
G1 X56.574 Y126.303 E11.42675
G1 X56.316 Y125.601 E11.44082
G1 X56.134 Y124.875 E11.4549
G1 X56.031 Y124.134 E11.46897
G1 X56.008 Y123.386 E11.48305
G1 X56.064 Y122.64 E11.49712
G1 X56.2 Y121.905 E11.51118
G1 X56.413 Y121.188 E11.52525
G1 X56.702 Y120.498 E11.53932
G1 X56.964 Y120.006 E11.54981
G1 X57.367 Y119.317 E11.56482
G1 X57.778 Y118.692 E11.57889
G1 X58.254 Y118.115 E11.59296
G1 X58.789 Y117.592 E11.60704
G1 X59.377 Y117.129 E11.62111
G1 X60.01 Y116.731 E11.63518
G1 X60.683 Y116.404 E11.64925
G0 F3600 X60.955 Y116.724
G1 F1800 X61.644 Y116.491 E11.66294
G1 X62.388 Y116.33 E11.67725
G1 X63.212 Y116.201 E11.69294
G1 X63.947 Y116.128 E11.70684
G1 X65.374 Y116.066 E11.73371
G1 X65.662 Y116.06 E11.73912
G1 X140.691 Y116.083 E13.15046
G1 X141.416 Y116.123 E13.16412
G1 X141.904 Y116.196 E13.1734
G1 X142.806 Y116.365 E13.19066
G1 X143.512 Y116.538 E13.20434
G1 X144.194 Y116.787 E13.21799
G1 X144.845 Y117.11 E13.23166
G1 X145.456 Y117.502 E13.24532
G1 X146.021 Y117.959 E13.25899
G1 X146.531 Y118.476 E13.27265
G1 X146.982 Y119.045 E13.28631
G1 X147.28 Y119.506 E13.29663
G1 X147.684 Y120.193 E13.31162
G1 X148.017 Y120.839 E13.3253
G1 X148.278 Y121.517 E13.33896
G1 X148.462 Y122.22 E13.35263
G1 X148.568 Y122.938 E13.36628
G1 X148.594 Y123.664 E13.37995
G1 X148.54 Y124.388 E13.3936
G1 X148.407 Y125.103 E13.40729
G1 X148.196 Y125.798 E13.42095
G1 X147.911 Y126.465 E13.43459
G1 X147.362 Y127.38 E13.45466
G1 X146.788 Y128.182 E13.47322
G1 X146.333 Y128.749 E13.48689
G1 X145.819 Y129.262 E13.50055
G1 X145.305 Y129.677 E13.51298
G1 X144.831 Y130.022 E13.52401
G1 X144.221 Y130.417 E13.53768
G1 X143.593 Y130.732 E13.55089
G1 X143.088 Y130.953 E13.56126
G1 X142.408 Y131.208 E13.57492
G1 X141.383 Y131.44 E13.59469
G1 X140.279 Y131.599 E13.61567
G1 X139.338 Y131.666 E13.63342
G1 X65.662 Y131.665 E15.0193
G1 X64.727 Y131.598 E15.03694
G1 X63.623 Y131.44 E15.05791
G1 X62.911 Y131.298 E15.07157
G1 X61.918 Y130.956 E15.09133
G1 X61.414 Y130.736 E15.10167
G1 X60.765 Y130.409 E15.11534
G1 X60.181 Y130.031 E15.12843
G1 X59.705 Y129.686 E15.13949
G1 X59.141 Y129.228 E15.15315
G1 X58.631 Y128.711 E15.16681
G1 X58.205 Y128.174 E15.17971
G1 X57.633 Y127.372 E15.19824
G1 X57.244 Y126.759 E15.21189
G1 X56.925 Y126.106 E15.22556
G1 X56.68 Y125.422 E15.23923
G1 X56.512 Y124.716 E15.25288
G1 X56.422 Y123.995 E15.26655
G1 X56.412 Y123.269 E15.28021
G1 X56.481 Y122.546 E15.29387
G1 X56.63 Y121.835 E15.30753
G1 X56.856 Y121.144 E15.32121
G1 X57.309 Y120.208 E15.34077
G1 X57.712 Y119.519 E15.35578
G1 X58.113 Y118.913 E15.36945
G1 X58.577 Y118.355 E15.3831
G1 X59.101 Y117.851 E15.39678
G1 X59.676 Y117.408 E15.41043
G1 X60.297 Y117.031 E15.4241
G1 X60.955 Y116.724 E15.43776
G0 F3600 X60.582 Y117.333
G1 F1800 X61.225 Y117.048 E15.45099
G1 X61.897 Y116.838 E15.46423
G1 X62.45 Y116.726 E15.47484
G1 X63.274 Y116.597 E15.49053
G1 X63.964 Y116.528 E15.50358
G1 X65.391 Y116.466 E15.53045
G1 X65.662 Y116.46 E15.53554
G1 X140.691 Y116.483 E16.94688
G1 X141.394 Y116.523 E16.96013
G1 X141.831 Y116.589 E16.96844
G1 X142.733 Y116.758 E16.9857
G1 X143.416 Y116.927 E16.99894
G1 X144.076 Y117.172 E17.01218
G1 X144.704 Y117.49 E17.02542
G1 X145.292 Y117.878 E17.03867
G1 X145.832 Y118.329 E17.05191
G1 X146.317 Y118.839 E17.06515
G1 X146.742 Y119.401 E17.0784
G1 X146.935 Y119.709 E17.08524
G1 X147.339 Y120.396 E17.10023
G1 X147.661 Y121.022 E17.11347
G1 X147.91 Y121.681 E17.12672
G1 X148.083 Y122.363 E17.13996
G1 X148.177 Y123.061 E17.15321
G1 X148.191 Y123.765 E17.16645
G1 X148.125 Y124.466 E17.1797
G1 X147.981 Y125.155 E17.19294
G1 X147.759 Y125.823 E17.20618
G1 X147.463 Y126.462 E17.21942
G1 X147.037 Y127.147 E17.2346
G1 X146.463 Y127.949 E17.25315
G1 X146.021 Y128.498 E17.26641
G1 X145.52 Y128.992 E17.27964
G1 X145.07 Y129.354 E17.29051
G1 X144.596 Y129.699 E17.30153
G1 X144.004 Y130.08 E17.31478
G1 X143.433 Y130.366 E17.32679
G1 X142.928 Y130.587 E17.33716
G1 X142.268 Y130.832 E17.3504
G1 X141.326 Y131.044 E17.36856
G1 X140.222 Y131.203 E17.38955
G1 X139.338 Y131.266 E17.40622
G1 X65.662 Y131.265 E18.7921
G1 X64.784 Y131.202 E18.80866
G1 X63.68 Y131.044 E18.82964
G1 X62.99 Y130.905 E18.84288
G1 X62.078 Y130.589 E18.86104
G1 X61.574 Y130.369 E18.87138
G1 X60.945 Y130.051 E18.88464
G1 X60.415 Y129.707 E18.89652
G1 X59.939 Y129.362 E18.90758
G1 X59.394 Y128.917 E18.92082
G1 X58.902 Y128.413 E18.93407
G1 X58.53 Y127.942 E18.94536
G1 X57.958 Y127.14 E18.96389
G1 X57.583 Y126.545 E18.97712
G1 X57.277 Y125.911 E18.99036
G1 X57.045 Y125.246 E19.00361
G1 X56.89 Y124.559 E19.01685
G1 X56.814 Y123.859 E19.0301
G1 X56.818 Y123.155 E19.04334
G1 X56.901 Y122.456 E19.05658
G1 X57.064 Y121.771 E19.06983
G1 X57.303 Y121.109 E19.08307
G1 X57.654 Y120.41 E19.09778
G1 X58.057 Y119.721 E19.11279
G1 X58.447 Y119.134 E19.12605
G1 X58.9 Y118.596 E19.13928
G1 X59.411 Y118.112 E19.15252
G1 X59.974 Y117.689 E19.16577
G1 X60.582 Y117.333 E19.17902
G0 F3600 X60.864 Y117.639
G1 F1800 X61.492 Y117.377 E19.19182
G1 X62.147 Y117.19 E19.20463
G1 X62.512 Y117.121 E19.21162
G1 X63.336 Y116.992 E19.22731
G1 X63.981 Y116.927 E19.2395
G1 X65.408 Y116.865 E19.26637
G1 X65.662 Y116.86 E19.27115
G1 X140.691 Y116.883 E20.68249
G1 X141.37 Y116.923 E20.69528
G1 X141.757 Y116.982 E20.70265
G1 X142.659 Y117.151 E20.71991
G1 X143.32 Y117.316 E20.73272
G1 X143.957 Y117.556 E20.74553
G1 X144.561 Y117.87 E20.75833
G1 X145.124 Y118.253 E20.77114
G1 X145.639 Y118.698 E20.78394
G1 X146.098 Y119.201 E20.79675
G1 X146.591 Y119.912 E20.81303
G1 X146.995 Y120.599 E20.82802
G1 X147.305 Y121.205 E20.84082
G1 X147.542 Y121.843 E20.85363
G1 X147.702 Y122.505 E20.86644
G1 X147.784 Y123.181 E20.87925
G1 X147.786 Y123.862 E20.89206
G1 X147.708 Y124.538 E20.90486
G1 X147.552 Y125.201 E20.91767
G1 X147.319 Y125.841 E20.93048
G1 X147.012 Y126.449 E20.94329
G1 X146.711 Y126.915 E20.95373
G1 X146.137 Y127.717 E20.97228
G1 X145.709 Y128.246 E20.98508
G1 X145.222 Y128.722 E20.99789
G1 X144.834 Y129.03 E21.00721
G1 X144.36 Y129.375 E21.01824
G1 X143.787 Y129.743 E21.03105
G1 X143.272 Y129.999 E21.04186
G1 X142.767 Y130.22 E21.05223
G1 X142.129 Y130.456 E21.06503
G1 X141.269 Y130.648 E21.0816
G1 X140.165 Y130.807 E21.10259
G1 X139.338 Y130.866 E21.11818
G1 X65.662 Y130.865 E22.50407
G1 X64.84 Y130.806 E22.51957
G1 X63.736 Y130.648 E22.54055
G1 X63.069 Y130.513 E22.55335
G1 X62.238 Y130.223 E22.56991
G1 X61.734 Y130.003 E22.58025
G1 X61.127 Y129.694 E22.59306
G1 X60.65 Y129.383 E22.60377
G1 X60.174 Y129.038 E22.61483
G1 X59.647 Y128.607 E22.62764
G1 X59.175 Y128.117 E22.64044
G1 X58.856 Y127.71 E22.65016
G1 X58.284 Y126.908 E22.66869
G1 X57.922 Y126.331 E22.68151
G1 X57.63 Y125.716 E22.69431
G1 X57.412 Y125.071 E22.70712
G1 X57.271 Y124.405 E22.71993
G1 X57.209 Y123.727 E22.73273
G1 X57.227 Y123.046 E22.74555
G1 X57.325 Y122.372 E22.75836
G1 X57.501 Y121.715 E22.77115
G1 X57.753 Y121.082 E22.78397
G1 X58 Y120.612 E22.79396
G1 X58.403 Y119.923 E22.80897
G1 X58.78 Y119.356 E22.82178
G1 X59.222 Y118.838 E22.83459
G1 X59.721 Y118.375 E22.84739
G1 X60.271 Y117.973 E22.86021
G1 X60.864 Y117.639 E22.87301
G0 F3600 X61.144 Y117.949
G1 F1800 X61.756 Y117.71 E22.88537
G1 X62.574 Y117.516 E22.90118
G1 X63.398 Y117.387 E22.91687
G1 X63.999 Y117.327 E22.92823
G1 X65.426 Y117.265 E22.9551
G1 X65.662 Y117.26 E22.95954
G1 X140.691 Y117.283 E24.37088
G1 X141.346 Y117.323 E24.38322
G1 X141.683 Y117.375 E24.38964
G1 X142.585 Y117.544 E24.4069
G1 X143.223 Y117.704 E24.41927
G1 X143.836 Y117.941 E24.43163
G1 X144.415 Y118.25 E24.44398
G1 X144.953 Y118.627 E24.45634
G1 X145.442 Y119.066 E24.4687
G1 X145.873 Y119.562 E24.48106
G1 X146.246 Y120.115 E24.49361
G1 X146.65 Y120.802 E24.5086
G1 X146.948 Y121.387 E24.52095
G1 X147.172 Y122.005 E24.53331
G1 X147.32 Y122.645 E24.54567
G1 X147.39 Y123.298 E24.55802
G1 X147.379 Y123.955 E24.57038
G1 X147.289 Y124.606 E24.58274
G1 X147.12 Y125.24 E24.59509
G1 X146.875 Y125.85 E24.60745
G1 X146.386 Y126.682 E24.62561
G1 X145.812 Y127.484 E24.64416
G1 X145.398 Y127.994 E24.65651
G1 X144.925 Y128.45 E24.66887
G1 X144.599 Y128.707 E24.67668
G1 X144.125 Y129.052 E24.68771
G1 X143.571 Y129.406 E24.70008
G1 X143.112 Y129.633 E24.70971
G1 X142.607 Y129.854 E24.72008
G1 X141.99 Y130.08 E24.73244
G1 X141.212 Y130.252 E24.74742
G1 X140.108 Y130.411 E24.76841
G1 X139.338 Y130.466 E24.78293
G1 X65.662 Y130.465 E26.16881
G1 X64.897 Y130.411 E26.18324
G1 X63.793 Y130.253 E26.20422
G1 X63.149 Y130.12 E26.21659
G1 X62.398 Y129.856 E26.23156
G1 X61.894 Y129.636 E26.24191
G1 X61.309 Y129.337 E26.25426
G1 X60.885 Y129.059 E26.2638
G1 X60.409 Y128.714 E26.27486
G1 X59.901 Y128.297 E26.28722
G1 X59.448 Y127.821 E26.29958
G1 X59.182 Y127.478 E26.30775
G1 X58.61 Y126.676 E26.32628
G1 X58.261 Y126.118 E26.33866
G1 X57.983 Y125.523 E26.35101
G1 X57.78 Y124.899 E26.36336
G1 X57.653 Y124.254 E26.37572
G1 X57.606 Y123.599 E26.38807
G1 X57.639 Y122.943 E26.40043
G1 X57.751 Y122.295 E26.4128
G1 X57.941 Y121.666 E26.42516
G1 X58.345 Y120.814 E26.4429
G1 X58.748 Y120.125 E26.45791
G1 X59.113 Y119.579 E26.47026
G1 X59.543 Y119.081 E26.48264
G1 X60.029 Y118.64 E26.49499
G1 X60.565 Y118.26 E26.50734
G1 X61.144 Y117.949 E26.51971
G0 F3600 X61.421 Y118.263
