;FLAVOR:Marlin
;TIME:4781
;Filament used: 4.4339m
;Layer height: 0.6
;Generated with Cura_SteamEngine 3.6.0
M104 S200
M105
M109 S200
M82 ;absolute extrusion mode
G21 ;metric values
G90 ;absolute positioning
M82 ;set extruder to absolute mode
M107 ;start with the fan off
G28 X0 Y0 ;move X/Y to min endstops
G28 Z0 ;move Z to min endstops
G1 Z15.0 F9000 ;move the platform down 15mm
G92 E0 ;zero the extruded length
G1 F200 E6 ;extrude 6 mm of feed stock
G92 E0 ;zero the extruded length again
G1 F9000
;Put printing message on LCD screen
M117 Printing...
G92 E0
G1 F1500 E-6.5
;LAYER_COUNT:93
;LAYER:0
M107
G0 F3600 X150.348 Y130.341 Z0.3
;TYPE:SKIRT
G1 F1500 E0
G1 F1800 X151.163 Y129.548 E0.02139
G1 X151.827 Y128.99 E0.03771
G1 X152.456 Y128.513 E0.05255
G1 X153.131 Y128.102 E0.06742
G1 X154.172 Y127.633 E0.0889
G1 X154.989 Y127.335 E0.10526
G1 X155.744 Y127.103 E0.12011
G1 X156.518 Y126.947 E0.13497
G1 X157.662 Y126.863 E0.15654
G1 X158.532 Y126.863 E0.17291
G1 X159.321 Y126.903 E0.18777
G1 X160.101 Y127.022 E0.20261
G1 X161.205 Y127.335 E0.2242
G1 X162.022 Y127.633 E0.24055
G1 X162.749 Y127.941 E0.25541
G1 X163.441 Y128.321 E0.27026
G1 X164.367 Y128.99 E0.29175
G1 X165.031 Y129.548 E0.30806
G1 X165.609 Y130.086 E0.32291
G1 X166.13 Y130.679 E0.33776
G1 X166.766 Y131.615 E0.35905
G1 X167.199 Y132.364 E0.37532
G1 X167.559 Y133.067 E0.39018
G1 X167.846 Y133.803 E0.40504
G1 X168.127 Y134.911 E0.42654
G1 X168.278 Y135.766 E0.44287
G1 X168.376 Y136.55 E0.45774
G1 X168.394 Y137.34 E0.4726
G1 X168.28 Y138.468 E0.49393
G1 X168.13 Y139.325 E0.51029
G1 X167.955 Y140.095 E0.52515
G1 X167.703 Y140.843 E0.53999
G1 X167.2 Y141.883 E0.56172
G1 X166.766 Y142.634 E0.57804
G1 X166.337 Y143.297 E0.59289
G1 X165.843 Y143.913 E0.60775
G1 X165.036 Y144.698 E0.62892
G1 X164.372 Y145.257 E0.64525
G1 X163.743 Y145.734 E0.6601
G1 X163.069 Y146.146 E0.67496
G1 X162.014 Y146.621 E0.69672
G1 X161.197 Y146.918 E0.71308
G1 X160.442 Y147.15 E0.72793
G1 X159.668 Y147.304 E0.74278
G1 X158.532 Y147.387 E0.7642
G1 X157.662 Y147.387 E0.78057
G1 X156.873 Y147.347 E0.79543
G1 X156.093 Y147.228 E0.81027
G1 X154.997 Y146.918 E0.8317
G1 X154.18 Y146.621 E0.84805
G1 X153.453 Y146.314 E0.86289
G1 X152.76 Y145.935 E0.87775
G1 X151.822 Y145.257 E0.89952
G1 X151.158 Y144.698 E0.91585
G1 X150.58 Y144.159 E0.93072
G1 X150.06 Y143.565 E0.94557
G1 X149.428 Y142.634 E0.96673
G1 X148.994 Y141.883 E0.98305
G1 X148.634 Y141.18 E0.99791
G1 X148.347 Y140.444 E1.01277
G1 X148.065 Y139.331 E1.03436
G1 X147.915 Y138.478 E1.05066
G1 X147.818 Y137.694 E1.06552
G1 X147.8 Y136.905 E1.08036
G1 X147.914 Y135.781 E1.10161
G1 X148.064 Y134.925 E1.11796
G1 X148.24 Y134.155 E1.13282
G1 X148.492 Y133.407 E1.14766
G1 X148.991 Y132.372 E1.16928
G1 X149.425 Y131.62 E1.18561
G1 X149.854 Y130.957 E1.20046
G1 X150.348 Y130.341 E1.21532
G0 F3600 X150.674 Y130.576
G1 F1800 X151.42 Y129.854 E1.23485
G1 X152.084 Y129.296 E1.25116
G1 X152.698 Y128.832 E1.26564
G1 X153.357 Y128.435 E1.28011
G1 X154.309 Y128.009 E1.29973
G1 X155.126 Y127.711 E1.31609
G1 X155.862 Y127.485 E1.33057
G1 X156.616 Y127.337 E1.34502
G1 X157.662 Y127.263 E1.36475
G1 X158.532 Y127.263 E1.38111
G1 X159.3 Y127.303 E1.39558
G1 X160.06 Y127.422 E1.41005
G1 X161.068 Y127.711 E1.42977
G1 X161.885 Y128.009 E1.44613
G1 X162.593 Y128.31 E1.4606
G1 X163.266 Y128.682 E1.47507
G1 X164.11 Y129.296 E1.4947
G1 X164.774 Y129.854 E1.51102
G1 X165.336 Y130.379 E1.52548
G1 X165.841 Y130.959 E1.53995
G1 X166.419 Y131.815 E1.55938
G1 X166.852 Y132.564 E1.57565
G1 X167.202 Y133.249 E1.59012
G1 X167.479 Y133.967 E1.6046
G1 X167.733 Y134.981 E1.62426
G1 X167.884 Y135.836 E1.64059
G1 X167.978 Y136.599 E1.65506
G1 X167.993 Y137.368 E1.66952
G1 X167.886 Y138.399 E1.68902
G1 X167.736 Y139.256 E1.70539
G1 X167.564 Y140.006 E1.71986
G1 X167.316 Y140.733 E1.73431
G1 X166.854 Y141.683 E1.75418
G1 X166.42 Y142.434 E1.7705
G1 X166.001 Y143.079 E1.78497
G1 X165.518 Y143.677 E1.79942
G1 X164.779 Y144.392 E1.81877
G1 X164.115 Y144.951 E1.83509
G1 X163.501 Y145.415 E1.84957
G1 X162.843 Y145.813 E1.86404
G1 X161.877 Y146.245 E1.88394
G1 X161.06 Y146.542 E1.90029
G1 X160.325 Y146.767 E1.91475
G1 X159.57 Y146.914 E1.92922
G1 X158.532 Y146.987 E1.9488
G1 X157.662 Y146.987 E1.96516
G1 X156.894 Y146.947 E1.97963
G1 X156.134 Y146.828 E1.9941
G1 X155.134 Y146.542 E2.01366
G1 X154.317 Y146.245 E2.03001
G1 X153.609 Y145.945 E2.04448
G1 X152.935 Y145.573 E2.05896
G1 X152.079 Y144.951 E2.07886
G1 X151.415 Y144.392 E2.09519
G1 X150.853 Y143.867 E2.10966
G1 X150.349 Y143.286 E2.12412
G1 X149.774 Y142.434 E2.14346
G1 X149.34 Y141.683 E2.15978
G1 X148.99 Y140.998 E2.17424
G1 X148.713 Y140.28 E2.18872
G1 X148.459 Y139.262 E2.20846
G1 X148.309 Y138.409 E2.22475
G1 X148.215 Y137.645 E2.23923
G1 X148.201 Y136.876 E2.2537
G1 X148.308 Y135.85 E2.2731
G1 X148.458 Y134.994 E2.28945
G1 X148.63 Y134.244 E2.30392
G1 X148.879 Y133.516 E2.31839
G1 X149.338 Y132.572 E2.33814
G1 X149.772 Y131.82 E2.35447
G1 X150.19 Y131.175 E2.36893
G1 X150.674 Y130.576 E2.38342
G0 F3600 X150.999 Y130.813
G1 F1800 X151.678 Y130.16 E2.40114
G1 X152.342 Y129.602 E2.41745
G1 X152.939 Y129.152 E2.43151
G1 X153.581 Y128.768 E2.44559
G1 X154.446 Y128.385 E2.46338
G1 X155.263 Y128.087 E2.47974
G1 X155.979 Y127.868 E2.49382
G1 X156.713 Y127.728 E2.50788
G1 X157.662 Y127.663 E2.52577
G1 X158.532 Y127.663 E2.54214
G1 X159.279 Y127.703 E2.55621
G1 X160.017 Y127.822 E2.57027
G1 X160.931 Y128.087 E2.58817
G1 X161.748 Y128.385 E2.60453
G1 X162.436 Y128.678 E2.6186
G1 X163.089 Y129.044 E2.63268
G1 X163.852 Y129.602 E2.65046
G1 X164.516 Y130.16 E2.66677
G1 X165.063 Y130.671 E2.68085
G1 X165.551 Y131.238 E2.69493
G1 X166.073 Y132.016 E2.71255
G1 X166.506 Y132.765 E2.72882
G1 X166.845 Y133.431 E2.74288
G1 X167.112 Y134.13 E2.75696
G1 X167.339 Y135.051 E2.7748
G1 X167.49 Y135.906 E2.79113
G1 X167.581 Y136.648 E2.80519
G1 X167.592 Y137.396 E2.81927
G1 X167.492 Y138.33 E2.83693
G1 X167.342 Y139.187 E2.8533
G1 X167.174 Y139.916 E2.86737
G1 X166.929 Y140.623 E2.88145
G1 X166.508 Y141.482 E2.89944
G1 X166.074 Y142.233 E2.91576
G1 X165.665 Y142.86 E2.92984
G1 X165.192 Y143.44 E2.94392
G1 X164.521 Y144.086 E2.96144
G1 X163.857 Y144.645 E2.97777
G1 X163.26 Y145.096 E2.99184
G1 X162.618 Y145.48 E3.00591
G1 X161.741 Y145.869 E3.02396
G1 X160.924 Y146.166 E3.04031
G1 X160.208 Y146.383 E3.05438
G1 X159.473 Y146.523 E3.06846
G1 X158.532 Y146.587 E3.0862
G1 X157.662 Y146.587 E3.10257
G1 X156.915 Y146.547 E3.11664
G1 X156.177 Y146.428 E3.1307
G1 X155.27 Y146.166 E3.14846
G1 X154.453 Y145.869 E3.16481
G1 X153.765 Y145.576 E3.17888
G1 X153.112 Y145.211 E3.19295
G1 X152.337 Y144.645 E3.211
G1 X151.673 Y144.086 E3.22733
G1 X151.127 Y143.574 E3.24141
G1 X150.639 Y143.007 E3.25548
G1 X150.12 Y142.233 E3.27301
G1 X149.686 Y141.482 E3.28932
G1 X149.347 Y140.816 E3.30338
G1 X149.081 Y140.117 E3.31745
G1 X148.853 Y139.192 E3.33537
G1 X148.703 Y138.339 E3.35166
G1 X148.613 Y137.597 E3.36572
G1 X148.603 Y136.849 E3.37979
G1 X148.702 Y135.919 E3.39739
G1 X148.852 Y135.063 E3.41373
G1 X149.02 Y134.334 E3.42781
G1 X149.265 Y133.627 E3.44188
G1 X149.684 Y132.772 E3.45979
G1 X150.118 Y132.02 E3.47612
G1 X150.526 Y131.393 E3.49019
G1 X150.999 Y130.813 E3.50427
G0 F3600 X151.323 Y131.051
G1 F1800 X151.935 Y130.466 E3.5202
G1 X152.599 Y129.908 E3.53651
G1 X153.18 Y129.472 E3.55018
G1 X153.805 Y129.103 E3.56383
G1 X154.583 Y128.761 E3.57982
G1 X155.4 Y128.463 E3.59617
G1 X156.095 Y128.252 E3.60984
G1 X156.809 Y128.118 E3.6235
G1 X157.662 Y128.063 E3.63958
G1 X158.532 Y128.063 E3.65595
G1 X159.257 Y128.103 E3.6696
G1 X159.974 Y128.222 E3.68328
G1 X160.794 Y128.463 E3.69935
G1 X161.611 Y128.761 E3.71571
G1 X162.278 Y129.047 E3.72936
G1 X162.91 Y129.404 E3.74302
G1 X163.595 Y129.908 E3.75901
G1 X164.259 Y130.466 E3.77533
G1 X164.789 Y130.963 E3.789
G1 X165.26 Y131.516 E3.80266
G1 X165.727 Y132.216 E3.81849
G1 X166.16 Y132.965 E3.83476
G1 X166.488 Y133.613 E3.84842
G1 X166.743 Y134.293 E3.86209
G1 X166.945 Y135.12 E3.8781
G1 X167.096 Y135.975 E3.89443
G1 X167.183 Y136.696 E3.90809
G1 X167.19 Y137.423 E3.92177
G1 X167.098 Y138.261 E3.93763
G1 X166.948 Y139.118 E3.95399
G1 X166.784 Y139.825 E3.96764
G1 X166.543 Y140.511 E3.98132
G1 X166.161 Y141.282 E3.99751
G1 X165.727 Y142.033 E4.01382
G1 X165.33 Y142.641 E4.02748
G1 X164.868 Y143.202 E4.04115
G1 X164.264 Y143.78 E4.05688
G1 X163.6 Y144.339 E4.0732
G1 X163.019 Y144.776 E4.08688
G1 X162.394 Y145.146 E4.10054
G1 X161.604 Y145.493 E4.11677
G1 X160.787 Y145.79 E4.13313
G1 X160.092 Y146 E4.14678
G1 X159.377 Y146.133 E4.16046
G1 X158.532 Y146.187 E4.17639
G1 X157.662 Y146.187 E4.19276
G1 X156.937 Y146.147 E4.20641
G1 X156.22 Y146.028 E4.22009
G1 X155.407 Y145.79 E4.23602
G1 X154.59 Y145.493 E4.25237
G1 X153.922 Y145.208 E4.26603
G1 X153.29 Y144.85 E4.2797
G1 X152.594 Y144.339 E4.29594
G1 X151.93 Y143.78 E4.31227
G1 X151.401 Y143.282 E4.32593
G1 X150.93 Y142.73 E4.33958
G1 X150.467 Y142.033 E4.35532
G1 X150.033 Y141.282 E4.37164
G1 X149.704 Y140.634 E4.38531
G1 X149.449 Y139.954 E4.39897
G1 X149.247 Y139.123 E4.41506
G1 X149.097 Y138.27 E4.43135
G1 X149.01 Y137.549 E4.44501
G1 X149.004 Y136.823 E4.45867
G1 X149.096 Y135.988 E4.47447
G1 X149.246 Y135.132 E4.49081
G1 X149.411 Y134.424 E4.50449
G1 X149.652 Y133.739 E4.51815
G1 X150.031 Y132.972 E4.53424
G1 X150.465 Y132.22 E4.55057
G1 X150.862 Y131.612 E4.56423
G1 X151.323 Y131.051 E4.57789
G0 F3600 X151.647 Y131.29
G1 F1800 X152.192 Y130.772 E4.59203
G1 X152.856 Y130.214 E4.60835
G1 X153.42 Y129.793 E4.62159
G1 X154.028 Y129.438 E4.63483
G1 X154.72 Y129.136 E4.64903
G1 X155.537 Y128.838 E4.66539
G1 X156.211 Y128.635 E4.67863
G1 X156.904 Y128.509 E4.69188
G1 X157.662 Y128.463 E4.70617
G1 X158.532 Y128.463 E4.72253
G1 X159.235 Y128.503 E4.73578
G1 X159.929 Y128.622 E4.74902
G1 X160.657 Y128.838 E4.76331
G1 X161.474 Y129.136 E4.77967
G1 X162.12 Y129.415 E4.7929
G1 X162.731 Y129.765 E4.80615
G1 X163.338 Y130.214 E4.82035
G1 X164.002 Y130.772 E4.83667
G1 X164.514 Y131.255 E4.84991
G1 X164.969 Y131.793 E4.86316
G1 X165.381 Y132.416 E4.87721
G1 X165.814 Y133.165 E4.89348
G1 X166.131 Y133.793 E4.90672
G1 X166.375 Y134.454 E4.91997
G1 X166.552 Y135.19 E4.93421
G1 X166.703 Y136.045 E4.95054
G1 X166.785 Y136.744 E4.96378
G1 X166.788 Y137.448 E4.97702
G1 X166.704 Y138.192 E4.99111
G1 X166.554 Y139.049 E5.00747
G1 X166.394 Y139.734 E5.0207
G1 X166.156 Y140.397 E5.03396
G1 X165.815 Y141.082 E5.04835
G1 X165.381 Y141.833 E5.06466
G1 X164.995 Y142.422 E5.07791
G1 X164.544 Y142.963 E5.09116
G1 X164.006 Y143.474 E5.10512
G1 X163.342 Y144.033 E5.12144
G1 X162.779 Y144.455 E5.13468
G1 X162.171 Y144.811 E5.14793
G1 X161.467 Y145.117 E5.16237
G1 X160.65 Y145.414 E5.17872
G1 X159.976 Y145.616 E5.19196
G1 X159.283 Y145.741 E5.20521
G1 X158.532 Y145.787 E5.21936
G1 X157.662 Y145.787 E5.23572
G1 X156.959 Y145.747 E5.24897
G1 X156.265 Y145.628 E5.26221
G1 X155.544 Y145.414 E5.27636
G1 X154.727 Y145.117 E5.29271
G1 X154.08 Y144.839 E5.30596
G1 X153.469 Y144.49 E5.3192
G1 X152.852 Y144.033 E5.33364
G1 X152.188 Y143.474 E5.34997
G1 X151.676 Y142.991 E5.36321
G1 X151.222 Y142.453 E5.37645
G1 X150.813 Y141.833 E5.39042
G1 X150.379 Y141.082 E5.40674
G1 X150.062 Y140.454 E5.41997
G1 X149.818 Y139.793 E5.43322
G1 X149.641 Y139.054 E5.44752
G1 X149.491 Y138.201 E5.46381
G1 X149.408 Y137.502 E5.47705
G1 X149.406 Y136.798 E5.49029
G1 X149.49 Y136.057 E5.50432
G1 X149.64 Y135.201 E5.52067
G1 X149.801 Y134.515 E5.53392
G1 X150.038 Y133.853 E5.54715
G1 X150.377 Y133.172 E5.56146
G1 X150.811 Y132.42 E5.57779
G1 X151.197 Y131.831 E5.59104
G1 X151.647 Y131.29 E5.60427
G0 F3600 X151.97 Y131.53
G1 F1800 X152.45 Y131.079 E5.61666
G1 X153.114 Y130.521 E5.63298
G1 X153.66 Y130.114 E5.64579
G1 X154.25 Y129.774 E5.6586
G1 X154.858 Y129.512 E5.67105
G1 X155.675 Y129.214 E5.68741
G1 X156.327 Y129.019 E5.70021
G1 X156.997 Y128.901 E5.71301
G1 X157.662 Y128.863 E5.72554
G1 X158.532 Y128.863 E5.7419
G1 X159.212 Y128.903 E5.75472
G1 X159.882 Y129.022 E5.76752
G1 X160.519 Y129.214 E5.78003
G1 X161.336 Y129.512 E5.79639
G1 X161.961 Y129.783 E5.8092
G1 X162.55 Y130.124 E5.82201
G1 X163.08 Y130.521 E5.83446
G1 X163.744 Y131.079 E5.85078
G1 X164.239 Y131.547 E5.86359
G1 X164.676 Y132.069 E5.8764
G1 X165.034 Y132.616 E5.88869
G1 X165.467 Y133.365 E5.90497
G1 X165.773 Y133.974 E5.91779
G1 X166.005 Y134.614 E5.93059
G1 X166.158 Y135.259 E5.94306
G1 X166.309 Y136.114 E5.9594
G1 X166.387 Y136.791 E5.97221
G1 X166.387 Y137.471 E5.98501
G1 X166.31 Y138.123 E5.99735
G1 X166.16 Y138.98 E6.01372
G1 X166.004 Y139.643 E6.02653
G1 X165.77 Y140.282 E6.03933
G1 X165.469 Y140.882 E6.05196
G1 X165.035 Y141.633 E6.06828
G1 X164.66 Y142.202 E6.08109
G1 X164.221 Y142.722 E6.0939
G1 X163.748 Y143.168 E6.10612
G1 X163.084 Y143.727 E6.12245
G1 X162.539 Y144.134 E6.13525
G1 X161.949 Y144.475 E6.14807
G1 X161.331 Y144.741 E6.16072
G1 X160.514 Y145.038 E6.17707
G1 X159.861 Y145.233 E6.18989
G1 X159.19 Y145.35 E6.20271
G1 X158.532 Y145.387 E6.2151
G1 X157.662 Y145.387 E6.23147
G1 X156.982 Y145.347 E6.24428
G1 X156.312 Y145.228 E6.25708
G1 X155.68 Y145.038 E6.26949
G1 X154.863 Y144.741 E6.28585
G1 X154.238 Y144.471 E6.29865
G1 X153.649 Y144.13 E6.31146
G1 X153.11 Y143.727 E6.32412
G1 X152.446 Y143.168 E6.34044
G1 X151.951 Y142.7 E6.35326
G1 X151.515 Y142.177 E6.36606
G1 X151.159 Y141.633 E6.37829
G1 X150.725 Y140.882 E6.39461
G1 X150.42 Y140.274 E6.40741
G1 X150.188 Y139.633 E6.42023
G1 X150.035 Y138.985 E6.43275
G1 X149.885 Y138.132 E6.44904
G1 X149.806 Y137.455 E6.46187
G1 X149.808 Y136.774 E6.47468
G1 X149.884 Y136.126 E6.48695
G1 X150.034 Y135.27 E6.5033
G1 X150.191 Y134.607 E6.51611
G1 X150.424 Y133.968 E6.52891
G1 X150.724 Y133.372 E6.54146
G1 X151.158 Y132.62 E6.55779
G1 X151.532 Y132.051 E6.5706
G1 X151.97 Y131.53 E6.5834
G0 F3600 X152.293 Y131.772
G1 F1800 X152.707 Y131.385 E6.59406
G1 X153.371 Y130.827 E6.61038
G1 X153.899 Y130.436 E6.62273
G1 X154.47 Y130.111 E6.63509
G1 X154.995 Y129.888 E6.64582
G1 X155.812 Y129.59 E6.66218
G1 X156.441 Y129.403 E6.67453
G1 X157.089 Y129.293 E6.68689
G1 X157.662 Y129.263 E6.69768
G1 X158.532 Y129.263 E6.71405
G1 X159.188 Y129.303 E6.72641
G1 X159.834 Y129.422 E6.73877
G1 X160.382 Y129.59 E6.74955
G1 X161.199 Y129.888 E6.76591
G1 X161.802 Y130.15 E6.77827
G1 X162.368 Y130.484 E6.79064
G1 X162.823 Y130.827 E6.80135
G1 X163.487 Y131.385 E6.81767
G1 X163.963 Y131.837 E6.83002
G1 X164.381 Y132.344 E6.84238
G1 X164.688 Y132.816 E6.85297
G1 X165.121 Y133.565 E6.86924
G1 X165.415 Y134.153 E6.88161
G1 X165.635 Y134.772 E6.89397
G1 X165.764 Y135.329 E6.90472
G1 X165.915 Y136.184 E6.92105
G1 X165.989 Y136.837 E6.93341
G1 X165.984 Y137.493 E6.94575
G1 X165.916 Y138.054 E6.95638
G1 X165.766 Y138.911 E6.97275
G1 X165.614 Y139.55 E6.98511
G1 X165.385 Y140.166 E6.99747
G1 X165.122 Y140.682 E7.00836
G1 X164.688 Y141.433 E7.02468
G1 X164.326 Y141.981 E7.03703
G1 X163.899 Y142.48 E7.04939
G1 X163.491 Y142.862 E7.0599
G1 X162.827 Y143.421 E7.07623
G1 X162.299 Y143.813 E7.0886
G1 X161.728 Y144.138 E7.10096
G1 X161.194 Y144.365 E7.11187
G1 X160.377 Y144.662 E7.12822
G1 X159.747 Y144.849 E7.14058
G1 X159.099 Y144.957 E7.15294
G1 X158.532 Y144.987 E7.16362
G1 X157.662 Y144.987 E7.17999
G1 X157.006 Y144.947 E7.19235
G1 X156.36 Y144.828 E7.20471
G1 X155.817 Y144.662 E7.21539
G1 X155 Y144.365 E7.23174
G1 X154.397 Y144.103 E7.24411
G1 X153.831 Y143.771 E7.25645
G1 X153.367 Y143.421 E7.26738
G1 X152.703 Y142.862 E7.28371
G1 X152.227 Y142.409 E7.29607
G1 X151.81 Y141.902 E7.30842
G1 X151.506 Y141.433 E7.31893
G1 X151.072 Y140.682 E7.33525
G1 X150.778 Y140.094 E7.34761
G1 X150.558 Y139.475 E7.35997
G1 X150.429 Y138.915 E7.37078
G1 X150.279 Y138.062 E7.38707
G1 X150.204 Y137.409 E7.39944
G1 X150.21 Y136.753 E7.41178
G1 X150.278 Y136.195 E7.42235
G1 X150.428 Y135.339 E7.4387
G1 X150.581 Y134.7 E7.45106
G1 X150.81 Y134.084 E7.46342
G1 X151.07 Y133.572 E7.47422
G1 X151.504 Y132.82 E7.49055
G1 X151.866 Y132.272 E7.50291
G1 X152.293 Y131.772 E7.51528
G0 F3600 X152.614 Y132.015
G1 F1800 X152.964 Y131.691 E7.52425
G1 X153.628 Y131.133 E7.54056
G1 X154.137 Y130.758 E7.55245
G1 X154.689 Y130.45 E7.56435
G1 X155.132 Y130.264 E7.57338
